;FLAVOR:Marlin
;TIME:163
;Filament used: 0.116628m
;Layer height: 0.2
;MINX:98.7
;MINY:98.295
;MINZ:0.2
;MAXX:111.3
;MAXY:110.881
;MAXZ:2.6
;Generated with Cura_SteamEngine 4.8.0
M140 S60
M105
M190 S60
M104 S200
M105
M109 S200
M82 ;absolute extrusion mode
G21 ;metric values
G90 ;absolute positioning
M82 ;set extruder to absolute mode
M107 ;start with the fan off
G28 X0 Y0 ;move X/Y to min endstops
G28 Z0 ;move Z to min endstops
G1 Z15.0 F100 ;move the platform down 15mm
G92 E0 ;zero the extruded length
G1 F200 E3 ;extrude 3mm of feed stock
G92 E0 ;zero the extruded length again
G1 F100
G0 Y20 F100
M117 Printing...
G5
G92 E0
G92 E0
G1 F2400 E-6
;LAYER_COUNT:13
;LAYER:0
M107
M204 S3000
M205 X10 Y10
G1 F600 Z0.275
;MESH:248e8bc6-4012-4f51-9a81-3ba6058d22e4.stl
G0 F3000 X105.802 Y98.986 Z0.275
M204 S1800
M205 X8 Y8
;TYPE:WALL-INNER
G1 F600 Z0.2
G1 F2400 E0
G1 F1500 X106.334 Y99.089 E0.02523
G1 X106.852 Y99.241 E0.05037
G1 X107.356 Y99.442 E0.07564
G1 X107.828 Y99.686 E0.10038
G1 X108.278 Y99.974 E0.12525
G1 X108.711 Y100.316 E0.15095
G1 X109.091 Y100.679 E0.17542
G1 X109.451 Y101.093 E0.20096
G1 X109.756 Y101.522 E0.22547
G1 X110.032 Y102 E0.25118
G1 X110.251 Y102.479 E0.2757
G1 X110.433 Y103.003 E0.30153
G1 X110.558 Y103.519 E0.32625
G1 X110.633 Y104.045 E0.35099
G1 X110.659 Y104.588 E0.37631
G1 X110.633 Y105.131 E0.40162
G1 X110.558 Y105.657 E0.42636
G1 X110.433 Y106.173 E0.45108
G1 X110.251 Y106.697 E0.47691
G1 X110.028 Y107.185 E0.50189
G1 X109.761 Y107.647 E0.52674
G1 X109.451 Y108.083 E0.55165
G1 X109.096 Y108.492 E0.57687
G1 X108.701 Y108.869 E0.6023
G1 X108.283 Y109.198 E0.62707
G1 X107.828 Y109.49 E0.65224
G1 X107.356 Y109.734 E0.67698
G1 X106.858 Y109.934 E0.70197
G1 X106.328 Y110.089 E0.72768
G1 X105.802 Y110.19 E0.75262
G1 X105.27 Y110.241 E0.77751
G1 X104.73 Y110.241 E0.80265
G1 X104.198 Y110.19 E0.82754
G1 X103.672 Y110.089 E0.85248
G1 X103.142 Y109.934 E0.87819
G1 X102.644 Y109.734 E0.90318
G1 X102.172 Y109.49 E0.92792
G1 X101.717 Y109.198 E0.9531
G1 X101.299 Y108.869 E0.97787
G1 X100.904 Y108.492 E1.00329
G1 X100.549 Y108.083 E1.02851
G1 X100.239 Y107.647 E1.05342
G1 X99.972 Y107.185 E1.07827
G1 X99.749 Y106.697 E1.10325
G1 X99.567 Y106.173 E1.12908
G1 X99.442 Y105.657 E1.1538
G1 X99.367 Y105.131 E1.17854
G1 X99.341 Y104.588 E1.20386
G1 X99.367 Y104.045 E1.22917
G1 X99.442 Y103.519 E1.25391
G1 X99.567 Y103.003 E1.27863
G1 X99.749 Y102.479 E1.30446
G1 X99.968 Y102 E1.32899
G1 X100.244 Y101.522 E1.35469
G1 X100.549 Y101.093 E1.3792
G1 X100.909 Y100.679 E1.40475
G1 X101.289 Y100.316 E1.42922
G1 X101.722 Y99.974 E1.45491
G1 X102.172 Y99.686 E1.47979
G1 X102.644 Y99.442 E1.50453
G1 X103.148 Y99.241 E1.52979
G1 X103.666 Y99.089 E1.55493
G1 X104.198 Y98.986 E1.58016
G1 X104.73 Y98.935 E1.60505
G1 X105.27 Y98.935 E1.63019
G1 X105.802 Y98.986 E1.65508
M204 S3000
M205 X10 Y10
G0 F3000 X105.888 Y98.432
M204 S1800
M205 X8 Y8
;TYPE:WALL-OUTER
G1 F1500 X106.463 Y98.543 E1.68235
G1 X107.038 Y98.712 E1.71025
G1 X107.584 Y98.93 E1.73763
G1 X108.108 Y99.201 E1.7651
G1 X108.61 Y99.523 E1.79287
G1 X109.077 Y99.891 E1.82056
G1 X109.496 Y100.291 E1.84753
G1 X109.891 Y100.746 E1.87559
G1 X110.228 Y101.219 E1.90263
G1 X110.529 Y101.741 E1.93069
G1 X110.772 Y102.273 E1.95792
G1 X110.97 Y102.842 E1.98597
G1 X111.108 Y103.411 E2.01324
G1 X111.191 Y103.992 E2.04057
G1 X111.219 Y104.588 E2.06835
G1 X111.191 Y105.184 E2.09613
G1 X111.108 Y105.765 E2.12346
G1 X110.97 Y106.334 E2.15072
G1 X110.772 Y106.903 E2.17878
G1 X110.525 Y107.444 E2.20647
G1 X110.233 Y107.95 E2.23367
G1 X109.891 Y108.43 E2.26112
G1 X109.501 Y108.88 E2.28884
G1 X109.072 Y109.29 E2.31648
G1 X108.61 Y109.653 E2.34384
G1 X108.108 Y109.975 E2.37161
G1 X107.584 Y110.246 E2.39908
G1 X107.038 Y110.465 E2.42647
G1 X106.463 Y110.633 E2.45436
G1 X105.888 Y110.744 E2.48163
G1 X105.292 Y110.801 E2.50951
G1 X104.708 Y110.801 E2.5367
G1 X104.112 Y110.744 E2.56458
G1 X103.537 Y110.633 E2.59185
G1 X102.962 Y110.465 E2.61974
G1 X102.416 Y110.246 E2.64714
G1 X101.892 Y109.975 E2.67461
G1 X101.39 Y109.653 E2.70238
G1 X100.928 Y109.29 E2.72974
G1 X100.499 Y108.88 E2.75737
G1 X100.109 Y108.43 E2.7851
G1 X99.767 Y107.95 E2.81254
G1 X99.475 Y107.444 E2.83974
G1 X99.228 Y106.903 E2.86744
G1 X99.03 Y106.334 E2.89549
G1 X98.892 Y105.765 E2.92275
G1 X98.809 Y105.184 E2.95008
G1 X98.781 Y104.588 E2.97786
G1 X98.809 Y103.992 E3.00565
G1 X98.892 Y103.411 E3.03298
G1 X99.03 Y102.842 E3.06024
G1 X99.228 Y102.273 E3.08829
G1 X99.471 Y101.741 E3.11553
G1 X99.772 Y101.219 E3.14358
G1 X100.109 Y100.746 E3.17063
G1 X100.504 Y100.291 E3.19868
G1 X100.923 Y99.891 E3.22566
G1 X101.39 Y99.523 E3.25334
G1 X101.892 Y99.201 E3.28111
G1 X102.416 Y98.93 E3.30858
G1 X102.962 Y98.712 E3.33596
G1 X103.537 Y98.543 E3.36387
G1 X104.112 Y98.432 E3.39113
G1 X104.708 Y98.375 E3.41901
G1 X105.292 Y98.375 E3.44621
G1 X105.888 Y98.432 E3.47409
M204 S3000
M205 X10 Y10
G0 F3000 X106.084 Y98.469
G0 X105.958 Y99.117
G0 X106.201 Y99.623
M204 S1800
M205 X8 Y8
;TYPE:SKIN
G1 F1500 X107.124 Y99.942 E3.51956
G1 X107.956 Y100.421 E3.56426
G1 X108.357 Y100.738 E3.58806
G1 X108.69 Y101.056 E3.6095
G1 X109.023 Y101.437 E3.63307
G1 X109.539 Y102.246 E3.67775
G1 X109.904 Y103.156 E3.7234
G1 X110.083 Y104.086 E3.7675
G1 X110.107 Y104.588 E3.7909
G1 X110.083 Y105.09 E3.81431
G1 X109.904 Y106.02 E3.85841
G1 X109.744 Y106.481 E3.88113
G1 X109.535 Y106.939 E3.90457
G1 X109.018 Y107.742 E3.94904
G1 X108.699 Y108.11 E3.97172
G1 X108.336 Y108.457 E3.9951
G1 X107.557 Y109.011 E4.03961
G1 X106.674 Y109.414 E4.08481
G1 X105.731 Y109.644 E4.13001
G1 X104.763 Y109.691 E4.17513
G1 X103.805 Y109.555 E4.22019
G1 X102.874 Y109.233 E4.26606
G1 X102.033 Y108.748 E4.31126
G1 X101.664 Y108.457 E4.33315
G1 X101.301 Y108.11 E4.35653
G1 X100.701 Y107.348 E4.40169
G1 X100.465 Y106.939 E4.42368
G1 X100.256 Y106.481 E4.44712
G1 X99.982 Y105.553 E4.49218
G1 X99.917 Y105.09 E4.51395
G1 X99.893 Y104.588 E4.53735
G1 X99.917 Y104.086 E4.56075
G1 X100.096 Y103.156 E4.60485
G1 X100.461 Y102.246 E4.65051
G1 X100.977 Y101.437 E4.69519
G1 X101.31 Y101.056 E4.71875
G1 X101.643 Y100.738 E4.74019
G1 X102.044 Y100.421 E4.76399
G1 X102.876 Y99.942 E4.80869
G1 X103.799 Y99.623 E4.85417
G1 X104.763 Y99.485 E4.89951
G1 X105.237 Y99.485 E4.92158
G1 X106.201 Y99.623 E4.96693
M204 S3000
M205 X10 Y10
G0 F3000 X108.977 Y101.849
M204 S1800
M205 X8 Y8
G1 F1500 X107.705 Y100.578 E5.05066
G1 X107.635 Y100.508
M204 S3000
M205 X10 Y10
G0 F3000 X106.251 Y99.916
M204 S1800
M205 X8 Y8
G1 F1500 X109.673 Y103.337 E5.27597
M204 S3000
M205 X10 Y10
G0 F3000 X109.831 Y104.287
M204 S1800
M205 X8 Y8
G1 F1500 X105.3 Y99.757 E5.57431
M204 S3000
M205 X10 Y10
G0 F3000 X104.532 Y99.78
M204 S1800
M205 X8 Y8
G1 F1500 X109.821 Y105.069 E5.9226
M204 S3000
M205 X10 Y10
G0 F3000 X109.692 Y105.732
M204 S1800
M205 X8 Y8
G1 F1500 X103.842 Y99.883 E6.3078
M204 S3000
M205 X10 Y10
G0 F3000 X103.255 Y100.087
M204 S1800
M205 X8 Y8
G1 F1500 X109.514 Y106.346 E6.71997
M204 S3000
M205 X10 Y10
G0 F3000 X109.261 Y106.885
M204 S1800
M205 X8 Y8
G1 F1500 X102.712 Y100.337 E7.1512
M204 S3000
M205 X10 Y10
G0 F3000 X102.21 Y100.626
M204 S1800
M205 X8 Y8
G1 F1500 X108.951 Y107.367 E7.5951
M204 S3000
M205 X10 Y10
G0 F3000 X108.608 Y107.816
M204 S1800
M205 X8 Y8
G1 F1500 X101.768 Y100.976 E8.04553
M204 S3000
M205 X10 Y10
G0 F3000 X101.375 Y101.375
M204 S1800
M205 X8 Y8
G1 F1500 X108.213 Y108.213 E8.49582
M204 S3000
M205 X10 Y10
G0 F3000 X107.756 Y108.548
M204 S1800
M205 X8 Y8
G1 F1500 X101.035 Y101.827 E8.93841
M204 S3000
M205 X10 Y10
G0 F3000 X100.727 Y102.311
M204 S1800
M205 X8 Y8
G1 F1500 X107.27 Y108.854 E9.36928
M204 S3000
M205 X10 Y10
G0 F3000 X106.727 Y109.103
M204 S1800
M205 X8 Y8
G1 F1500 X100.491 Y102.867 E9.77993
M204 S3000
M205 X10 Y10
G0 F3000 X100.3 Y103.468
M204 S1800
M205 X8 Y8
G1 F1500 X106.114 Y109.281 E10.16276
M204 S3000
M205 X10 Y10
G0 F3000 X105.436 Y109.396
M204 S1800
M205 X8 Y8
G1 F1500 X100.174 Y104.134 E10.50927
M204 S3000
M205 X10 Y10
G0 F3000 X100.169 Y104.921
M204 S1800
M205 X8 Y8
G1 F1500 X104.66 Y109.412 E10.80501
M204 S3000
M205 X10 Y10
G0 F3000 X103.698 Y109.242
M204 S1800
M205 X8 Y8
G1 F1500 X100.356 Y105.899 E11.02512
G1 X100.286 Y105.829
M204 S3000
M205 X10 Y10
G0 F3000 X101.107 Y107.443
M204 S1800
M205 X8 Y8
G1 F1500 X102.215 Y108.551 E11.09809
G1 X102.285 Y108.621
M204 S3000
M205 X10 Y10
;MESH:NONMESH
G0 F600 X102.285 Y108.621 Z0.4
G0 F3000 X105.363 Y99.043
G0 X105.395 Y98.707
;TIME_ELAPSED:15.005163
;LAYER:1
M204 S1800
M205 X8 Y8
;TYPE:WALL-INNER
;MESH:248e8bc6-4012-4f51-9a81-3ba6058d22e4.stl
G1 F2250 X105.944 Y98.769 E11.11646
G1 X106.495 Y98.887 E11.1352
G1 X107.044 Y99.06 E11.15435
G1 X107.546 Y99.272 E11.17247
G1 X108.045 Y99.541 E11.19133
G1 X108.502 Y99.846 E11.2096
G1 X108.951 Y100.214 E11.22891
G1 X109.34 Y100.599 E11.24711
G1 X109.702 Y101.034 E11.26594
G1 X110.023 Y101.501 E11.28479
G1 X110.287 Y101.982 E11.30303
G1 X110.511 Y102.5 E11.32181
G1 X110.687 Y103.035 E11.34054
G1 X110.809 Y103.586 E11.35931
G1 X110.878 Y104.134 E11.37768
G1 X110.894 Y104.694 E11.39631
G1 X110.856 Y105.266 E11.41538
G1 X110.767 Y105.812 E11.43378
G1 X110.626 Y106.349 E11.45224
G1 X110.43 Y106.881 E11.4711
G1 X110.183 Y107.397 E11.49013
G1 X109.902 Y107.863 E11.50823
G1 X109.567 Y108.314 E11.52691
G1 X109.181 Y108.744 E11.54613
G1 X108.777 Y109.114 E11.56435
G1 X108.333 Y109.45 E11.58287
G1 X107.84 Y109.754 E11.60214
G1 X107.354 Y109.993 E11.62015
G1 X106.82 Y110.195 E11.63914
G1 X106.279 Y110.343 E11.65779
G1 X105.728 Y110.438 E11.67639
G1 X105.173 Y110.481 E11.6949
G1 X104.605 Y110.469 E11.7138
G1 X104.054 Y110.406 E11.73225
G1 X103.503 Y110.289 E11.75098
G1 X102.959 Y110.119 E11.76994
G1 X102.454 Y109.905 E11.78818
G1 X101.952 Y109.634 E11.80715
G1 X101.498 Y109.329 E11.82535
G1 X101.055 Y108.967 E11.84437
G1 X100.654 Y108.571 E11.86312
G1 X100.298 Y108.143 E11.88163
G1 X99.98 Y107.679 E11.90034
G1 X99.714 Y107.194 E11.91874
G1 X99.483 Y106.664 E11.93797
G1 X99.314 Y106.145 E11.95613
G1 X99.191 Y105.59 E11.97503
G1 X99.122 Y105.042 E11.9934
G1 X99.106 Y104.482 E12.01204
G1 X99.143 Y103.911 E12.03107
G1 X99.233 Y103.362 E12.04957
G1 X99.374 Y102.827 E12.06797
G1 X99.57 Y102.295 E12.08683
G1 X99.816 Y101.783 E12.10572
G1 X100.101 Y101.31 E12.12409
G1 X100.433 Y100.862 E12.14264
G1 X100.815 Y100.438 E12.16162
G1 X101.229 Y100.057 E12.18033
G1 X101.667 Y99.726 E12.19859
G1 X102.16 Y99.422 E12.21785
G1 X102.649 Y99.182 E12.23597
G1 X103.172 Y98.985 E12.25456
G1 X103.725 Y98.833 E12.27364
G1 X104.274 Y98.738 E12.29217
G1 X104.827 Y98.695 E12.31062
G1 X105.395 Y98.707 E12.32951
M204 S3000
M205 X10 Y10
G0 F4500 X105.416 Y98.307
M204 S1800
M205 X8 Y8
;TYPE:WALL-OUTER
G1 F2250 X106.012 Y98.375 E12.34946
G1 X106.602 Y98.501 E12.36953
G1 X107.175 Y98.681 E12.3895
G1 X107.722 Y98.912 E12.40925
G1 X108.254 Y99.199 E12.42936
G1 X108.74 Y99.524 E12.4488
G1 X109.214 Y99.912 E12.46918
G1 X109.636 Y100.33 E12.48893
G1 X110.023 Y100.794 E12.50903
G1 X110.362 Y101.289 E12.52898
G1 X110.648 Y101.809 E12.54872
G1 X110.886 Y102.359 E12.56866
G1 X111.074 Y102.932 E12.58871
G1 X111.203 Y103.515 E12.60857
G1 X111.277 Y104.103 E12.62828
G1 X111.294 Y104.698 E12.64808
G1 X111.254 Y105.314 E12.66861
G1 X111.159 Y105.896 E12.68823
G1 X111.009 Y106.467 E12.70786
G1 X110.797 Y107.041 E12.72821
G1 X110.538 Y107.582 E12.74816
G1 X110.235 Y108.084 E12.76767
G1 X109.874 Y108.571 E12.78783
G1 X109.467 Y109.024 E12.80808
G1 X109.034 Y109.421 E12.82762
G1 X108.553 Y109.785 E12.84769
G1 X108.04 Y110.101 E12.86772
G1 X107.511 Y110.361 E12.88733
G1 X106.944 Y110.576 E12.9075
G1 X106.368 Y110.733 E12.92736
G1 X105.774 Y110.836 E12.94741
G1 X105.185 Y110.881 E12.96705
G1 X104.584 Y110.869 E12.98705
G1 X103.988 Y110.801 E13.007
G1 X103.397 Y110.675 E13.0271
G1 X102.825 Y110.496 E13.04703
G1 X102.278 Y110.264 E13.06679
G1 X101.746 Y109.977 E13.0869
G1 X101.258 Y109.65 E13.10644
G1 X100.786 Y109.264 E13.12672
G1 X100.364 Y108.847 E13.14645
G1 X99.977 Y108.382 E13.16657
G1 X99.641 Y107.891 E13.18636
G1 X99.353 Y107.368 E13.20622
G1 X99.11 Y106.808 E13.22652
G1 X98.926 Y106.244 E13.24625
G1 X98.797 Y105.661 E13.26611
G1 X98.723 Y105.073 E13.28582
G1 X98.706 Y104.478 E13.30562
G1 X98.746 Y103.861 E13.32619
G1 X98.841 Y103.28 E13.34577
G1 X98.991 Y102.709 E13.3654
G1 X99.203 Y102.135 E13.38575
G1 X99.462 Y101.595 E13.40567
G1 X99.765 Y101.092 E13.4252
G1 X100.126 Y100.605 E13.44537
G1 X100.534 Y100.152 E13.46564
G1 X100.966 Y99.755 E13.48516
G1 X101.447 Y99.391 E13.50522
G1 X101.96 Y99.075 E13.52526
G1 X102.489 Y98.815 E13.54487
G1 X103.054 Y98.602 E13.56495
G1 X103.635 Y98.443 E13.58498
G1 X104.226 Y98.34 E13.60494
G1 X104.815 Y98.295 E13.62458
G1 X105.416 Y98.307 E13.64458
M204 S3000
M205 X10 Y10
G0 F4500 X105.614 Y98.329
G0 X105.366 Y99.097
M204 S1800
M205 X8 Y8
;TYPE:SKIN
G1 F1350 X105.877 Y99.155 E13.66168
G1 X106.403 Y99.267 E13.67957
G1 X106.91 Y99.427 E13.69725
G1 X107.379 Y99.625 E13.71418
G1 X107.847 Y99.877 E13.73186
G1 X108.261 Y100.153 E13.74841
G1 X108.688 Y100.503 E13.76678
G1 X109.05 Y100.861 E13.78371
G1 X109.39 Y101.27 E13.8014
G1 X109.695 Y101.712 E13.81926
G1 X109.936 Y102.152 E13.83595
G1 X110.15 Y102.647 E13.85388
G1 X110.309 Y103.131 E13.87083
G1 X110.426 Y103.662 E13.88891
G1 X110.488 Y104.146 E13.90514
G1 X110.504 Y104.68 E13.92291
G1 X110.467 Y105.231 E13.94128
G1 X110.385 Y105.733 E13.9582
G1 X110.256 Y106.226 E13.97514
G1 X110.066 Y106.739 E13.99334
G1 X109.845 Y107.203 E14.01043
G1 X109.583 Y107.638 E14.02732
G1 X109.263 Y108.069 E14.04518
G1 X108.898 Y108.476 E14.06336
G1 X108.536 Y108.807 E14.07968
G1 X108.11 Y109.129 E14.09744
G1 X107.649 Y109.413 E14.11545
G1 X107.201 Y109.634 E14.13206
G1 X106.695 Y109.825 E14.15005
G1 X106.192 Y109.963 E14.1674
G1 X105.675 Y110.052 E14.18485
G1 X105.171 Y110.091 E14.20166
G1 X104.637 Y110.079 E14.21942
G1 X104.116 Y110.02 E14.23686
G1 X103.596 Y109.909 E14.25455
G1 X103.093 Y109.752 E14.27207
G1 X102.621 Y109.552 E14.28912
G1 X102.161 Y109.304 E14.30651
G1 X101.728 Y109.013 E14.32386
G1 X101.318 Y108.678 E14.34147
G1 X100.944 Y108.308 E14.35897
G1 X100.606 Y107.903 E14.37651
G1 X100.311 Y107.473 E14.39385
G1 X100.061 Y107.016 E14.41118
G1 X99.851 Y106.531 E14.42876
G1 X99.69 Y106.042 E14.44588
G1 X99.576 Y105.523 E14.46356
G1 X99.511 Y105.008 E14.48082
G1 X99.496 Y104.495 E14.49789
G1 X99.532 Y103.947 E14.51616
G1 X99.616 Y103.435 E14.53341
G1 X99.744 Y102.95 E14.5501
G1 X99.932 Y102.442 E14.56811
G1 X100.156 Y101.973 E14.5854
G1 X100.42 Y101.535 E14.60241
G1 X100.737 Y101.107 E14.62012
G1 X101.093 Y100.712 E14.63781
G1 X101.47 Y100.365 E14.65485
G1 X101.898 Y100.042 E14.67269
G1 X102.343 Y99.768 E14.69007
G1 X102.814 Y99.537 E14.70751
G1 X103.293 Y99.356 E14.72455
G1 X103.812 Y99.213 E14.74245
G1 X104.327 Y99.124 E14.75983
G1 X104.83 Y99.085 E14.77661
G1 X105.366 Y99.097 E14.79445
M204 S3000
M205 X10 Y10
G0 F4500 X100.183 Y102.331
M204 S1800
M205 X8 Y8
G1 F1350 X102.742 Y99.772 E14.91481
G1 X102.812 Y99.702
M204 S3000
M205 X10 Y10
G0 F4500 X103.632 Y99.448
M204 S1800
M205 X8 Y8
G1 F1350 X99.856 Y103.224 E15.09243
M204 S3000
M205 X10 Y10
G0 F4500 X99.716 Y103.929
M204 S1800
M205 X8 Y8
G1 F1350 X104.343 Y99.303 E15.31004
M204 S3000
M205 X10 Y10
G0 F4500 X104.945 Y99.267
M204 S1800
M205 X8 Y8
G1 F1350 X99.677 Y104.535 E15.55783
M204 S3000
M205 X10 Y10
G0 F4500 X99.7 Y105.077
M204 S1800
M205 X8 Y8
G1 F1350 X105.486 Y99.291 E15.82999
M204 S3000
M205 X10 Y10
G0 F4500 X105.981 Y99.361
M204 S1800
M205 X8 Y8
G1 F1350 X99.771 Y105.572 E16.12211
M204 S3000
M205 X10 Y10
G0 F4500 X99.877 Y106.032
M204 S1800
M205 X8 Y8
G1 F1350 X106.441 Y99.468 E16.43086
M204 S3000
M205 X10 Y10
G0 F4500 X106.87 Y99.604
M204 S1800
M205 X8 Y8
G1 F1350 X100.017 Y106.457 E16.75321
M204 S3000
M205 X10 Y10
G0 F4500 X100.187 Y106.853
M204 S1800
M205 X8 Y8
G1 F1350 X107.268 Y99.772 E17.08627
M204 S3000
M205 X10 Y10
G0 F4500 X107.637 Y99.968
M204 S1800
M205 X8 Y8
G1 F1350 X100.38 Y107.225 E17.42762
M204 S3000
M205 X10 Y10
G0 F4500 X100.599 Y107.572
M204 S1800
M205 X8 Y8
G1 F1350 X107.986 Y100.185 E17.77508
M204 S3000
M205 X10 Y10
G0 F4500 X108.31 Y100.427
M204 S1800
M205 X8 Y8
