;FLAVOR:Marlin
;TIME:8634
;Filament used: 7.81321m
;Layer height: 0.2
;MINX:24.024
;MINY:74.607
;MINZ:0.24
;MAXX:184.321
;MAXY:134.429
;MAXZ:18.49
;Generated with Cura_SteamEngine 4.8.0
M140 S60
M105
M190 S60
M104 S200
M105
M109 S200
M82 ;absolute extrusion mode
G21 ;metric values
G90 ;absolute positioning
M82 ;set extruder to absolute mode
M107 ;start with the fan off
G28 X0 Y0 ;move X/Y to min endstops
G28 Z0 ;move Z to min endstops
G1 Z15.0 F100 ;move the platform down 15mm
G92 E0 ;zero the extruded length
G1 F200 E3 ;extrude 3mm of feed stock
G92 E0 ;zero the extruded length again
G1 F100
G0 Y20 F100
M117 Printing...
G5
G92 E0
G92 E0
G1 F2400 E-6
;LAYER_COUNT:87
;LAYER:-6
M107
M204 S3000
M205 X10 Y10
G0 F6000 X37.919 Y76.391 Z0.24
M204 S1800
M205 X8 Y8
;TYPE:SUPPORT-INTERFACE
G1 F2400 E0
G1 F1125 X38.734 Y76.008 E0.07188
G1 X38.877 Y75.948 E0.08426
G1 X39.736 Y75.619 E0.15769
G1 X39.886 Y75.567 E0.17036
G1 X40.736 Y75.312 E0.2412
G1 X40.909 Y75.265 E0.25551
G1 X41.804 Y75.065 E0.32871
G1 X41.934 Y75.042 E0.33925
G1 X42.839 Y74.908 E0.41228
G1 X43.008 Y74.89 E0.42585
G1 X43.897 Y74.824 E0.49701
G1 X44.081 Y74.815 E0.51171
G1 X44.587 Y74.807 E0.55211
G1 X72.3 Y74.809 E2.76428
G1 X73.3 Y74.845 E2.84416
G1 X73.423 Y74.854 E2.854
G1 X74.341 Y74.956 E2.92773
G1 X74.516 Y74.981 E2.94184
G1 X75.393 Y75.143 E3.01303
G1 X75.548 Y75.178 E3.02572
G1 X76.43 Y75.409 E3.09849
G1 X76.57 Y75.451 E3.11016
G1 X77.426 Y75.742 E3.18233
G1 X77.592 Y75.806 E3.19653
G1 X78.395 Y76.147 E3.26617
G1 X78.584 Y76.235 E3.28282
G1 X79.371 Y76.64 E3.35347
G1 X79.514 Y76.721 E3.36659
G1 X80.259 Y77.175 E3.43623
G1 X80.425 Y77.285 E3.45212
G1 X81.143 Y77.798 E3.52256
G1 X81.284 Y77.908 E3.53684
G1 X81.975 Y78.48 E3.60844
G1 X82.091 Y78.585 E3.62093
G1 X82.734 Y79.204 E3.69218
G1 X82.871 Y79.347 E3.70799
G1 X83.465 Y80.01 E3.77904
G1 X83.552 Y80.114 E3.78987
G1 X84.125 Y80.854 E3.86458
G1 X84.202 Y80.962 E3.87516
G1 X84.719 Y81.744 E3.95
G1 X84.788 Y81.856 E3.9605
G1 X85.057 Y82.336 E4.00442
G1 X85.422 Y82.899 E4.05798
G1 X85.863 Y83.421 E4.11253
G1 X86.366 Y83.882 E4.16699
G1 X86.923 Y84.276 E4.22145
G1 X87.526 Y84.598 E4.27602
G1 X88.164 Y84.84 E4.33049
G1 X88.833 Y85.001 E4.38541
G1 X89.784 Y85.08 E4.46159
G1 X91.496 Y85.068 E4.59825
G1 X95.784 Y85.093 E4.94054
G1 X95.866 Y85.095 E4.94709
G1 X96.807 Y85.136 E5.02228
G1 X96.986 Y85.15 E5.03661
G1 X97.871 Y85.252 E5.10772
G1 X98.021 Y85.275 E5.11983
G1 X98.928 Y85.447 E5.19353
G1 X99.061 Y85.478 E5.20443
G1 X99.572 Y85.615 E5.24666
G1 X100.229 Y85.746 E5.30013
G1 X100.886 Y85.795 E5.35272
G1 X104.321 Y85.831 E5.62694
G1 X158.72 Y85.832 E9.9693
G1 X159.388 Y85.79 E10.02273
G1 X160.036 Y85.666 E10.07539
G1 X160.678 Y85.501 E10.1283
G1 X160.838 Y85.466 E10.14138
G1 X161.756 Y85.301 E10.21583
G1 X161.882 Y85.282 E10.226
G1 X162.789 Y85.186 E10.29881
G1 X162.965 Y85.174 E10.31289
G1 X164.078 Y85.143 E10.40177
G1 X164.347 Y85.147 E10.42324
G1 X165.335 Y85.193 E10.5022
G1 X165.472 Y85.204 E10.51317
G1 X166.37 Y85.311 E10.58536
G1 X166.548 Y85.339 E10.59974
G1 X167.371 Y85.497 E10.66663
G1 X167.499 Y85.524 E10.67708
G1 X169.448 Y85.967 E10.83662
G1 X170.456 Y86.234 E10.91986
G1 X170.619 Y86.284 E10.93347
G1 X171.456 Y86.574 E11.00418
G1 X171.638 Y86.645 E11.01977
G1 X172.524 Y87.025 E11.09673
G1 X173.048 Y87.273 E11.14301
G1 X173.92 Y87.723 E11.22133
G1 X174.056 Y87.8 E11.23381
G1 X174.842 Y88.281 E11.30737
G1 X174.955 Y88.356 E11.31819
G1 X175.707 Y88.897 E11.39214
G1 X175.814 Y88.978 E11.40285
G1 X176.225 Y89.31 E11.44503
G1 X177.03 Y90.035 E11.53151
G1 X177.402 Y90.34 E11.56991
G1 X177.671 Y90.54 E11.59666
G1 X178.351 Y91.082 E11.66608
G1 X178.483 Y91.195 E11.67995
G1 X179.131 Y91.794 E11.75039
G1 X179.269 Y91.93 E11.76585
G1 X179.847 Y92.549 E11.83346
G1 X180 Y92.726 E11.85213
G1 X180.818 Y93.766 E11.95775
G1 X181.356 Y94.52 E12.03169
G1 X181.435 Y94.637 E12.04296
G1 X181.921 Y95.376 E12.11356
G1 X182.04 Y95.572 E12.13187
G1 X182.453 Y96.311 E12.19944
G1 X182.54 Y96.482 E12.21476
G1 X182.907 Y97.272 E12.28429
G1 X182.985 Y97.455 E12.30017
G1 X183.387 Y98.538 E12.39239
G1 X183.418 Y98.628 E12.39998
G1 X183.686 Y99.578 E12.47878
G1 X183.718 Y99.709 E12.48954
G1 X183.904 Y100.617 E12.56353
G1 X183.932 Y100.784 E12.57704
G1 X184.046 Y101.664 E12.64788
G1 X184.062 Y101.835 E12.66159
G1 X184.118 Y103.06 E12.75947
G1 X184.121 Y103.166 E12.76794
G1 X184.121 Y105.915 E12.98737
G1 X184.085 Y106.921 E13.06773
G1 X184.075 Y107.056 E13.07853
G1 X183.973 Y107.973 E13.15219
G1 X183.948 Y108.148 E13.1663
G1 X183.789 Y109.007 E13.23603
G1 X183.746 Y109.195 E13.25142
G1 X183.459 Y110.265 E13.33986
G1 X183.411 Y110.428 E13.35342
G1 X183.076 Y111.362 E13.43263
G1 X183.035 Y111.463 E13.44133
G1 X182.65 Y112.331 E13.51712
G1 X182.593 Y112.448 E13.52751
G1 X182.178 Y113.227 E13.59797
G1 X182.068 Y113.414 E13.61529
G1 X181.407 Y114.436 E13.71244
G1 X181.32 Y114.564 E13.7248
G1 X180.758 Y115.345 E13.80161
G1 X180.192 Y116.079 E13.87559
G1 X180.058 Y116.239 E13.89225
G1 X179.488 Y116.876 E13.96049
G1 X179.351 Y117.019 E13.97629
G1 X178.708 Y117.638 E14.04754
G1 X178.595 Y117.739 E14.05964
G1 X177.893 Y118.324 E14.13258
G1 X177.768 Y118.42 E14.14516
G1 X177.446 Y118.651 E14.1768
G1 X176.909 Y119.093 E14.23231
G1 X176.341 Y119.627 E14.29454
G1 X176.274 Y119.686 E14.30167
G1 X175.5 Y120.297 E14.38039
G1 X175.369 Y120.392 E14.3933
G1 X174.641 Y120.885 E14.46349
G1 X174.483 Y120.984 E14.47837
G1 X173.697 Y121.436 E14.55075
G1 X173.578 Y121.5 E14.56153
G1 X173.047 Y121.766 E14.60894
G1 X172.496 Y122.025 E14.65754
G1 X171.605 Y122.408 E14.73496
G1 X170.67 Y122.735 E14.81402
G1 X170.476 Y122.794 E14.83021
G1 X169.583 Y123.034 E14.90402
G1 X169.455 Y123.066 E14.91456
G1 X167.49 Y123.514 E15.07544
G1 X167.364 Y123.54 E15.08571
G1 X166.468 Y123.71 E15.1585
G1 X166.279 Y123.739 E15.17377
G1 X165.42 Y123.837 E15.24278
G1 X165.227 Y123.852 E15.25823
G1 X164.221 Y123.892 E15.3386
G1 X163.915 Y123.894 E15.36303
G1 X162.879 Y123.857 E15.44578
G1 X162.756 Y123.848 E15.45562
G1 X161.839 Y123.746 E15.52927
G1 X161.664 Y123.721 E15.54338
G1 X160.775 Y123.557 E15.61555
G1 X160.652 Y123.529 E15.62561
G1 X160.065 Y123.376 E15.67404
G1 X159.406 Y123.248 E15.72762
G1 X158.725 Y123.204 E15.7821
G1 X104.279 Y123.204 E20.12821
G1 X100.774 Y123.244 E20.40802
G1 X100.104 Y123.295 E20.46165
G1 X99.826 Y123.353 E20.48432
G1 X99.819 Y123.333 E20.48601
G1 X99.222 Y123.488 E20.53525
G1 X98.323 Y123.686 E20.60873
G1 X98.157 Y123.716 E20.6222
G1 X97.285 Y123.843 E20.69254
G1 X97.081 Y123.864 E20.70891
G1 X95.771 Y123.939 E20.81365
G1 X95.613 Y123.943 E20.82626
G1 X91.299 Y123.967 E21.17063
G1 X89.795 Y123.956 E21.29069
G1 X89.126 Y123.993 E21.34418
G1 X88.454 Y124.117 E21.39872
G1 X87.804 Y124.325 E21.4532
G1 X87.185 Y124.613 E21.5077
G1 X86.608 Y124.977 E21.56216
G1 X86.08 Y125.41 E21.61666
G1 X85.608 Y125.911 E21.67161
G1 X85.071 Y126.692 E21.74727
G1 X84.997 Y126.824 E21.75935
G1 X84.52 Y127.607 E21.83253
G1 X84.42 Y127.758 E21.84699
G1 X83.909 Y128.472 E21.91708
G1 X83.796 Y128.62 E21.93194
G1 X83.22 Y129.311 E22.00375
G1 X83.119 Y129.424 E22.01585
G1 X82.494 Y130.073 E22.08777
G1 X82.369 Y130.193 E22.1016
G1 X81.699 Y130.795 E22.1735
G1 X81.582 Y130.892 E22.18563
G1 X80.87 Y131.442 E22.25745
G1 X80.711 Y131.555 E22.27302
G1 X79.973 Y132.045 E22.34373
G1 X79.847 Y132.121 E22.35548
G1 X79.053 Y132.567 E22.42818
G1 X78.902 Y132.645 E22.44174
G1 X78.088 Y133.028 E22.51355
G1 X77.945 Y133.088 E22.52593
G1 X77.086 Y133.417 E22.59936
G1 X76.936 Y133.469 E22.61203
G1 X76.086 Y133.724 E22.68287
G1 X75.913 Y133.771 E22.69718
G1 X75.018 Y133.971 E22.77038
G1 X74.888 Y133.994 E22.78092
G1 X73.983 Y134.128 E22.85395
G1 X73.815 Y134.146 E22.86744
G1 X72.925 Y134.212 E22.93868
G1 X72.741 Y134.221 E22.95338
G1 X72.236 Y134.229 E22.9937
G1 X44.523 Y134.228 E25.20587
G1 X43.522 Y134.192 E25.28582
G1 X43.399 Y134.183 E25.29567
G1 X42.482 Y134.081 E25.36932
G1 X42.307 Y134.056 E25.38343
G1 X41.418 Y133.892 E25.45559
G1 X41.295 Y133.864 E25.46566
G1 X40.401 Y133.63 E25.53943
G1 X40.238 Y133.581 E25.55302
G1 X39.396 Y133.295 E25.624
G1 X39.23 Y133.231 E25.6382
G1 X38.427 Y132.89 E25.70784
G1 X38.238 Y132.802 E25.72448
G1 X37.444 Y132.394 E25.79574
G1 X37.327 Y132.327 E25.8065
G1 X36.548 Y131.853 E25.87929
G1 X36.397 Y131.753 E25.89375
G1 X35.683 Y131.242 E25.96384
G1 X35.535 Y131.129 E25.9787
G1 X34.844 Y130.553 E26.05051
G1 X34.731 Y130.452 E26.06261
G1 X34.082 Y129.827 E26.13453
G1 X33.962 Y129.702 E26.14836
G1 X33.353 Y129.023 E26.22117
G1 X33.263 Y128.915 E26.23239
G1 X32.704 Y128.191 E26.30541
G1 X32.6 Y128.044 E26.31978
G1 X32.107 Y127.3 E26.39102
G1 X32.028 Y127.169 E26.40324
G1 X31.582 Y126.375 E26.47593
G1 X31.51 Y126.236 E26.48843
G1 X31.122 Y125.41 E26.56127
G1 X31.062 Y125.266 E26.57373
G1 X30.738 Y124.419 E26.64612
G1 X30.677 Y124.239 E26.66129
G1 X30.431 Y123.419 E26.72962
G1 X30.384 Y123.246 E26.74393
G1 X30.183 Y122.345 E26.81762
G1 X30.161 Y122.221 E26.82768
G1 X30.026 Y121.307 E26.90143
G1 X30.008 Y121.138 E26.91499
G1 X29.94 Y120.221 E26.98839
G1 X29.932 Y120.054 E27.00174
G1 X29.858 Y119.388 E27.05523
G1 X29.697 Y118.725 E27.10969
G1 X29.454 Y118.087 E27.16419
G1 X29.131 Y117.481 E27.219
G1 X28.611 Y116.778 E27.2888
G1 X28.149 Y116.25 E27.34481
G1 X28.039 Y116.115 E27.35871
G1 X27.51 Y115.415 E27.42875
G1 X27.41 Y115.272 E27.44268
G1 X26.738 Y114.21 E27.543
G1 X26.228 Y113.323 E27.62467
G1 X25.727 Y112.376 E27.71019
G1 X25.659 Y112.233 E27.72283
G1 X25.296 Y111.402 E27.79522
G1 X25.241 Y111.263 E27.80715
G1 X24.934 Y110.392 E27.88087
G1 X24.895 Y110.268 E27.89124
G1 X24.676 Y109.482 E27.95638
G1 X24.465 Y108.493 E28.0371
G1 X24.434 Y108.321 E28.05105
G1 X24.312 Y107.442 E28.12189
G1 X24.296 Y107.272 E28.13552
G1 X24.228 Y105.909 E28.24445
G1 X24.225 Y105.79 E28.25396
G1 X24.227 Y103.208 E28.46006
G1 X24.23 Y103.075 E28.47068
G1 X24.263 Y102.172 E28.54281
G1 X24.276 Y101.999 E28.55666
G1 X24.378 Y101.064 E28.63174
G1 X24.394 Y100.946 E28.64124
G1 X24.485 Y100.415 E28.68425
G1 X24.698 Y99.465 E28.76197
G1 X24.757 Y99.241 E28.78046
G1 X25.002 Y98.428 E28.84824
G1 X25.063 Y98.246 E28.86356
G1 X25.387 Y97.404 E28.93557
G1 X25.437 Y97.286 E28.9458
G1 X25.836 Y96.439 E29.02054
G1 X25.908 Y96.296 E29.03332
G1 X26.167 Y95.818 E29.07672
G1 X26.595 Y95.061 E29.14614
G1 X26.801 Y94.706 E29.1789
G1 X27.365 Y93.826 E29.26233
G1 X27.452 Y93.701 E29.27449
G1 X27.99 Y92.984 E29.34604
G1 X28.087 Y92.865 E29.3583
G1 X28.63 Y92.24 E29.42439
G1 X29.037 Y91.707 E29.47792
G1 X29.38 Y91.117 E29.5324
G1 X29.645 Y90.488 E29.58688
G1 X29.831 Y89.826 E29.64177
G1 X29.944 Y88.918 E29.71481
G1 X29.962 Y88.416 E29.75491
G1 X29.972 Y88.28 E29.76579
G1 X30.074 Y87.363 E29.83944
G1 X30.099 Y87.188 E29.85356
G1 X30.261 Y86.31 E29.92482
G1 X30.291 Y86.176 E29.93579
G1 X30.522 Y85.291 E30.0088
G1 X30.574 Y85.119 E30.02314
G1 X30.86 Y84.277 E30.09412
G1 X30.924 Y84.111 E30.10833
G1 X31.265 Y83.308 E30.17796
G1 X31.346 Y83.133 E30.19336
G1 X31.763 Y82.323 E30.26608
G1 X31.828 Y82.208 E30.27662
G1 X32.302 Y81.429 E30.34941
G1 X32.403 Y81.276 E30.36405
G1 X32.912 Y80.565 E30.43385
G1 X33.031 Y80.41 E30.44945
G1 X33.602 Y79.725 E30.52063
G1 X33.703 Y79.612 E30.53273
G1 X34.328 Y78.963 E30.60465
G1 X34.453 Y78.843 E30.61849
G1 X35.124 Y78.24 E30.6905
G1 X35.24 Y78.144 E30.70252
G1 X35.952 Y77.594 E30.77433
G1 X36.111 Y77.481 E30.78991
G1 X36.849 Y76.991 E30.86062
G1 X36.975 Y76.915 E30.87236
G1 X37.769 Y76.469 E30.94506
G1 X37.919 Y76.391 E30.95855
M204 S3000
M205 X10 Y10
G0 F6000 X38.4 Y76.164
M204 S1800
M205 X8 Y8
G1 F1125 X38.4 Y132.877 E35.48563
M204 S3000
M205 X10 Y10
G0 F6000 X40 Y133.5
M204 S1800
M205 X8 Y8
G1 F1125 X40 Y75.532 E40.11289
M204 S3000
M205 X10 Y10
G0 F6000 X41.6 Y75.11
M204 S1800
M205 X8 Y8
G1 F1125 X41.6 Y133.925 E44.80776
M204 S3000
M205 X10 Y10
G0 F6000 X43.2 Y134.16
M204 S1800
M205 X8 Y8
G1 F1125 X43.2 Y74.875 E49.54014
M204 S3000
M205 X10 Y10
G0 F6000 X44.8 Y74.808
M204 S1800
M205 X8 Y8
G1 F1125 X44.8 Y134.228 E54.2833
M204 S3000
M205 X10 Y10
G0 F6000 X46.4 Y134.228
M204 S1800
M205 X8 Y8
G1 F1125 X46.4 Y74.808 E59.02646
M204 S3000
M205 X10 Y10
G0 F6000 X48 Y74.808
M204 S1800
M205 X8 Y8
G1 F1125 X48 Y134.228 E63.76962
M204 S3000
M205 X10 Y10
G0 F6000 X49.6 Y134.228
M204 S1800
M205 X8 Y8
G1 F1125 X49.6 Y74.808 E68.51279
M204 S3000
M205 X10 Y10
G0 F6000 X51.2 Y74.808
M204 S1800
M205 X8 Y8
G1 F1125 X51.2 Y134.228 E73.25595
M204 S3000
M205 X10 Y10
G0 F6000 X52.8 Y134.228
M204 S1800
M205 X8 Y8
G1 F1125 X52.8 Y74.808 E77.99911
M204 S3000
M205 X10 Y10
G0 F6000 X54.4 Y74.808
M204 S1800
M205 X8 Y8
G1 F1125 X54.4 Y134.228 E82.74227
M204 S3000
M205 X10 Y10
G0 F6000 X56 Y134.228
M204 S1800
M205 X8 Y8
G1 F1125 X56 Y74.808 E87.48543
M204 S3000
M205 X10 Y10
G0 F6000 X57.6 Y74.808
M204 S1800
M205 X8 Y8
G1 F1125 X57.6 Y134.228 E92.22859
M204 S3000
M205 X10 Y10
G0 F6000 X59.2 Y134.228
M204 S1800
M205 X8 Y8
G1 F1125 X59.2 Y74.809 E96.97167
M204 S3000
M205 X10 Y10
G0 F6000 X60.8 Y74.809
M204 S1800
M205 X8 Y8
G1 F1125 X60.8 Y134.228 E101.71476
M204 S3000
M205 X10 Y10
G0 F6000 X62.4 Y134.228
M204 S1800
M205 X8 Y8
G1 F1125 X62.4 Y74.809 E106.45784
M204 S3000
M205 X10 Y10
G0 F6000 X64 Y74.809
M204 S1800
M205 X8 Y8
G1 F1125 X64 Y134.228 E111.20092
M204 S3000
M205 X10 Y10
G0 F6000 X65.6 Y134.228
M204 S1800
M205 X8 Y8
G1 F1125 X65.6 Y74.809 E115.944
M204 S3000
M205 X10 Y10
G0 F6000 X67.2 Y74.809
M204 S1800
M205 X8 Y8
G1 F1125 X67.2 Y134.228 E120.68708
M204 S3000
M205 X10 Y10
G0 F6000 X68.8 Y134.228
M204 S1800
M205 X8 Y8
G1 F1125 X68.8 Y74.809 E125.43016
M204 S3000
M205 X10 Y10
G0 F6000 X70.4 Y74.809
M204 S1800
M205 X8 Y8
G1 F1125 X70.4 Y134.228 E130.17324
M204 S3000
M205 X10 Y10
G0 F6000 X72 Y134.228
M204 S1800
M205 X8 Y8
G1 F1125 X72 Y74.809 E134.91633
M204 S3000
M205 X10 Y10
G0 F6000 X73.6 Y74.874
M204 S1800
M205 X8 Y8
G1 F1125 X73.6 Y134.162 E139.64895
M204 S3000
M205 X10 Y10
G0 F6000 X75.2 Y133.931
M204 S1800
M205 X8 Y8
G1 F1125 X75.2 Y75.108 E144.34446
M204 S3000
M205 X10 Y10
G0 F6000 X76.8 Y75.53
M204 S1800
M205 X8 Y8
G1 F1125 X76.8 Y133.51 E148.97267
M204 S3000
M205 X10 Y10
G0 F6000 X78.4 Y132.882
M204 S1800
M205 X8 Y8
G1 F1125 X78.4 Y76.15 E153.50127
M204 S3000
M205 X10 Y10
G0 F6000 X80 Y77.018
M204 S1800
M205 X8 Y8
G1 F1125 X80 Y132.028 E157.8924
M204 S3000
M205 X10 Y10
G0 F6000 X81.6 Y130.878
M204 S1800
M205 X8 Y8
G1 F1125 X81.6 Y78.17 E162.09978
M204 S3000
M205 X10 Y10
G0 F6000 X83.2 Y79.715
M204 S1800
M205 X8 Y8
G1 F1125 X83.2 Y129.334 E166.06058
M204 S3000
M205 X10 Y10
G0 F6000 X84.8 Y127.148
M204 S1800
M205 X8 Y8
G1 F1125 X84.8 Y81.878 E169.67423
M204 S3000
M205 X10 Y10
G0 F6000 X86.4 Y83.907
M204 S1800
M205 X8 Y8
G1 F1125 X86.4 Y125.148 E172.96627
M204 S3000
M205 X10 Y10
G0 F6000 X88 Y124.263
M204 S1800
M205 X8 Y8
G1 F1125 X88 Y84.778 E176.11813
M204 S3000
M205 X10 Y10
G0 F6000 X89.6 Y85.065
M204 S1800
M205 X8 Y8
G1 F1125 X89.6 Y123.967 E179.22346
M204 S3000
M205 X10 Y10
G0 F6000 X91.2 Y123.966
M204 S1800
M205 X8 Y8
G1 F1125 X91.2 Y85.07 E182.3283
M204 S3000
M205 X10 Y10
G0 F6000 X92.8 Y85.076
M204 S1800
M205 X8 Y8
G1 F1125 X92.8 Y123.959 E185.43211
M204 S3000
M205 X10 Y10
G0 F6000 X94.4 Y123.95
M204 S1800
M205 X8 Y8
G1 F1125 X94.4 Y85.085 E188.53448
M204 S3000
M205 X10 Y10
G0 F6000 X96 Y85.101
M204 S1800
M205 X8 Y8
G1 F1125 X96 Y123.926 E191.63366
M204 S3000
M205 X10 Y10
G0 F6000 X97.6 Y123.798
M204 S1800
M205 X8 Y8
G1 F1125 X97.6 Y85.221 E194.71305
M204 S3000
M205 X10 Y10
G0 F6000 X99.2 Y85.516
M204 S1800
M205 X8 Y8
G1 F1125 X99.2 Y123.493 E197.74454
M204 S3000
M205 X10 Y10
G0 F6000 X100.8 Y123.244
M204 S1800
M205 X8 Y8
G1 F1125 X100.8 Y85.789 E200.73436
M204 S3000
M205 X10 Y10
G0 F6000 X102.4 Y85.811
M204 S1800
M205 X8 Y8
G1 F1125 X102.4 Y123.226 E203.72098
M204 S3000
M205 X10 Y10
G0 F6000 X104 Y123.208
M204 S1800
M205 X8 Y8
G1 F1125 X104 Y85.828 E206.70482
M204 S3000
M205 X10 Y10
G0 F6000 X105.6 Y85.832
M204 S1800
M205 X8 Y8
G1 F1125 X105.6 Y123.204 E209.68801
M204 S3000
M205 X10 Y10
G0 F6000 X107.2 Y123.204
M204 S1800
M205 X8 Y8
G1 F1125 X107.2 Y85.832 E212.67121
M204 S3000
M205 X10 Y10
G0 F6000 X108.8 Y85.832
M204 S1800
M205 X8 Y8
