;FLAVOR:Marlin
;TIME:183
;Filament used: 0.174753m
;Layer height: 0.2
;MINX:93.814
;MINY:93.808
;MINZ:0.2
;MAXX:116.196
;MAXY:116.195
;MAXZ:3
;Generated with Cura_SteamEngine 4.8.0
M140 S60
M105
M190 S60
M104 S200
M105
M109 S200
M82 ;absolute extrusion mode
G21 ;metric values
G90 ;absolute positioning
M82 ;set extruder to absolute mode
M107 ;start with the fan off
G28 X0 Y0 ;move X/Y to min endstops
G28 Z0 ;move Z to min endstops
G1 Z15.0 F100 ;move the platform down 15mm
G92 E0 ;zero the extruded length
G1 F200 E3 ;extrude 3mm of feed stock
G92 E0 ;zero the extruded length again
G1 F100
G0 Y20 F100
M117 Printing...
G5
G92 E0
G92 E0
G1 F2400 E-6
;LAYER_COUNT:15
;LAYER:0
M106 S255
M204 S3000
M205 X10 Y10
G1 F600 Z0.275
G0 F3000 X97.204 Y96.967 Z0.275
M204 S1800
M205 X8 Y8
;TYPE:SKIRT
G1 F600 Z0.2
G1 F2400 E0
G1 X97.827 Y96.406 E0.03904
G1 X98.219 Y96.093 E0.0624
G1 X98.902 Y95.612 E0.10129
G1 X99.33 Y95.347 E0.12473
G1 X100.068 Y94.95 E0.16376
G1 X100.526 Y94.738 E0.18726
G1 X101.307 Y94.432 E0.22631
G1 X101.779 Y94.279 E0.24942
G1 X102.588 Y94.068 E0.28835
G1 X103.088 Y93.97 E0.31207
G1 X103.92 Y93.858 E0.35116
G1 X104.415 Y93.821 E0.37428
G1 X105.25 Y93.808 E0.41316
G1 X105.751 Y93.83 E0.43652
G1 X106.585 Y93.917 E0.47556
G1 X107.088 Y94 E0.4993
G1 X107.903 Y94.187 E0.53824
G1 X108.38 Y94.327 E0.56138
G1 X109.17 Y94.61 E0.60046
G1 X109.634 Y94.808 E0.62395
G1 X110.381 Y95.182 E0.66285
G1 X110.815 Y95.433 E0.68619
G1 X111.515 Y95.895 E0.72525
G1 X111.917 Y96.196 E0.74863
G1 X112.554 Y96.736 E0.78752
G1 X112.918 Y97.085 E0.811
G1 X113.488 Y97.7 E0.85004
G1 X113.801 Y98.08 E0.87297
G1 X114.294 Y98.756 E0.91193
G1 X114.573 Y99.192 E0.93603
G1 X114.979 Y99.923 E0.97497
G1 X115.191 Y100.364 E0.99775
G1 X115.511 Y101.142 E1.03692
G1 X115.676 Y101.622 E1.06056
G1 X115.898 Y102.426 E1.09939
G1 X116.003 Y102.922 E1.123
G1 X116.127 Y103.75 E1.16199
G1 X116.171 Y104.246 E1.18517
G1 X116.196 Y105.082 E1.22412
G1 X116.181 Y105.584 E1.2475
G1 X116.106 Y106.418 E1.2865
G1 X116.031 Y106.918 E1.31004
G1 X115.856 Y107.739 E1.34913
G1 X115.726 Y108.211 E1.37192
G1 X115.458 Y109.002 E1.41081
G1 X115.26 Y109.484 E1.43508
G1 X114.895 Y110.238 E1.47408
G1 X114.656 Y110.667 E1.49695
G1 X114.205 Y111.374 E1.536
G1 X113.911 Y111.779 E1.5593
G1 X113.381 Y112.425 E1.59821
G1 X113.035 Y112.798 E1.6219
G1 X112.43 Y113.376 E1.66086
G1 X112.049 Y113.699 E1.68412
G1 X111.377 Y114.203 E1.72323
G1 X110.959 Y114.479 E1.74656
G1 X110.236 Y114.897 E1.78545
G1 X109.784 Y115.123 E1.80898
G1 X109.014 Y115.452 E1.84797
G1 X108.538 Y115.623 E1.87152
G1 X107.734 Y115.857 E1.91051
G1 X107.25 Y115.967 E1.93362
G1 X106.422 Y116.105 E1.97271
G1 X105.918 Y116.158 E1.99631
G1 X105.083 Y116.195 E2.03523
G1 X104.586 Y116.187 E2.05837
G1 X103.752 Y116.125 E2.09731
G1 X103.248 Y116.057 E2.12099
G1 X102.424 Y115.894 E2.16011
G1 X101.944 Y115.769 E2.1832
G1 X101.148 Y115.511 E2.22217
G1 X100.676 Y115.326 E2.24577
G1 X99.919 Y114.975 E2.28463
G1 X99.478 Y114.737 E2.30796
G1 X98.763 Y114.295 E2.3471
G1 X98.351 Y114.006 E2.37054
G1 X97.697 Y113.484 E2.4095
G1 X97.327 Y113.151 E2.43268
G1 X96.739 Y112.555 E2.47166
G1 X96.405 Y112.172 E2.49533
G1 X95.893 Y111.509 E2.53433
G1 X95.612 Y111.098 E2.55752
G1 X95.182 Y110.379 E2.59653
G1 X94.95 Y109.931 E2.62002
G1 X94.61 Y109.167 E2.65896
G1 X94.432 Y108.692 E2.68258
G1 X94.187 Y107.894 E2.72145
G1 X94.07 Y107.411 E2.74459
G1 X93.92 Y106.585 E2.78368
G1 X93.831 Y105.803 E2.82033
G1 X93.814 Y105.42 E2.83818
G1 X93.814 Y104.582 E2.8772
G1 X93.844 Y104.082 E2.90052
G1 X93.944 Y103.248 E2.93964
G1 X94.035 Y102.746 E2.96339
G1 X94.234 Y101.936 E3.00223
G1 X94.38 Y101.463 E3.02528
G1 X94.674 Y100.679 E3.06427
G1 X94.878 Y100.222 E3.08757
G1 X95.263 Y99.479 E3.12654
G1 X95.521 Y99.046 E3.15001
G1 X95.994 Y98.352 E3.18912
G1 X96.301 Y97.955 E3.21249
G1 X96.85 Y97.326 E3.25136
G1 X97.204 Y96.967 E3.27484
M204 S3000
M205 X10 Y10
G0 F3000 X97.578 Y97.383
M204 S1800
M205 X8 Y8
G1 F2400 X98.201 Y96.822 E3.31388
G1 X98.541 Y96.551 E3.33412
G1 X99.224 Y96.07 E3.37302
G1 X99.596 Y95.84 E3.39339
G1 X100.334 Y95.443 E3.43241
G1 X100.73 Y95.26 E3.45272
G1 X101.511 Y94.954 E3.49178
G1 X101.92 Y94.821 E3.5118
G1 X102.729 Y94.61 E3.55073
G1 X103.162 Y94.525 E3.57128
G1 X103.994 Y94.413 E3.61037
G1 X104.423 Y94.38 E3.63041
G1 X105.258 Y94.367 E3.66929
G1 X105.693 Y94.387 E3.68957
G1 X106.527 Y94.474 E3.72862
G1 X106.963 Y94.546 E3.74919
G1 X107.778 Y94.733 E3.78813
G1 X108.192 Y94.854 E3.80821
G1 X108.982 Y95.137 E3.84729
G1 X109.384 Y95.309 E3.86765
G1 X110.131 Y95.683 E3.90655
G1 X110.506 Y95.9 E3.92672
G1 X111.206 Y96.362 E3.96578
G1 X111.555 Y96.623 E3.98607
G1 X112.192 Y97.163 E4.02495
G1 X112.508 Y97.466 E4.04534
G1 X113.078 Y98.081 E4.08438
G1 X113.349 Y98.41 E4.10423
G1 X113.842 Y99.086 E4.14319
G1 X114.083 Y99.464 E4.16407
G1 X114.489 Y100.195 E4.203
G1 X114.673 Y100.577 E4.22274
G1 X114.993 Y101.355 E4.26192
G1 X115.136 Y101.771 E4.2824
G1 X115.358 Y102.575 E4.32124
G1 X115.449 Y103.005 E4.3417
G1 X115.573 Y103.833 E4.38069
G1 X115.611 Y104.263 E4.40079
G1 X115.636 Y105.099 E4.43973
G1 X115.623 Y105.534 E4.46
G1 X115.548 Y106.368 E4.49899
G1 X115.483 Y106.801 E4.51938
G1 X115.308 Y107.622 E4.55847
G1 X115.195 Y108.031 E4.57823
G1 X114.927 Y108.822 E4.61711
G1 X114.756 Y109.24 E4.63814
G1 X114.391 Y109.994 E4.67715
G1 X114.184 Y110.366 E4.69697
G1 X113.733 Y111.073 E4.73602
G1 X113.478 Y111.424 E4.75622
G1 X112.948 Y112.07 E4.79513
G1 X112.648 Y112.393 E4.81566
G1 X112.043 Y112.971 E4.85462
G1 X111.713 Y113.251 E4.87477
G1 X111.041 Y113.755 E4.91389
G1 X110.679 Y113.994 E4.93409
G1 X109.956 Y114.412 E4.97297
G1 X109.564 Y114.608 E4.99338
G1 X108.794 Y114.937 E5.03237
G1 X108.381 Y115.085 E5.0528
G1 X107.577 Y115.319 E5.09179
G1 X107.158 Y115.414 E5.1118
G1 X106.33 Y115.552 E5.15088
G1 X105.893 Y115.598 E5.17134
G1 X105.058 Y115.635 E5.21026
G1 X104.627 Y115.629 E5.23033
G1 X103.793 Y115.567 E5.26928
G1 X103.357 Y115.508 E5.28976
G1 X102.533 Y115.345 E5.32888
G1 X102.117 Y115.237 E5.34889
G1 X101.321 Y114.979 E5.38785
G1 X100.912 Y114.818 E5.40832
G1 X100.155 Y114.467 E5.44717
G1 X99.772 Y114.261 E5.46742
G1 X99.057 Y113.819 E5.50656
G1 X98.7 Y113.568 E5.52688
G1 X98.046 Y113.046 E5.56585
G1 X97.726 Y112.757 E5.58593
G1 X97.138 Y112.161 E5.62491
G1 X96.848 Y111.83 E5.6454
G1 X96.336 Y111.167 E5.68441
G1 X96.093 Y110.81 E5.70452
G1 X95.663 Y110.091 E5.74353
G1 X95.461 Y109.703 E5.7639
G1 X95.121 Y108.939 E5.80284
G1 X94.967 Y108.527 E5.82332
G1 X94.722 Y107.729 E5.86219
G1 X94.621 Y107.311 E5.88221
G1 X94.471 Y106.485 E5.9213
G1 X94.389 Y105.752 E5.95565
G1 X94.374 Y105.42 E5.97112
G1 X94.374 Y104.582 E6.01014
G1 X94.4 Y104.149 E6.03034
G1 X94.5 Y103.315 E6.06945
G1 X94.579 Y102.88 E6.09004
G1 X94.778 Y102.07 E6.12888
G1 X94.905 Y101.66 E6.14887
G1 X95.199 Y100.876 E6.18785
G1 X95.375 Y100.479 E6.20807
G1 X95.76 Y99.736 E6.24704
G1 X95.984 Y99.361 E6.26738
G1 X96.457 Y98.667 E6.30649
G1 X96.723 Y98.323 E6.32674
G1 X97.272 Y97.694 E6.36561
G1 X97.578 Y97.383 E6.38593
M204 S3000
M205 X10 Y10
G0 F3000 X97.953 Y97.799
M204 S1800
M205 X8 Y8
G1 F2400 X98.576 Y97.238 E6.42497
G1 X98.864 Y97.009 E6.4421
G1 X99.547 Y96.528 E6.481
G1 X99.861 Y96.334 E6.49818
G1 X100.599 Y95.937 E6.53721
G1 X100.934 Y95.781 E6.55441
G1 X101.715 Y95.475 E6.59347
G1 X102.062 Y95.363 E6.61045
G1 X102.871 Y95.152 E6.64938
G1 X103.237 Y95.08 E6.66675
G1 X104.069 Y94.968 E6.70584
G1 X104.432 Y94.94 E6.72279
G1 X105.267 Y94.927 E6.76168
G1 X105.635 Y94.944 E6.77883
G1 X106.469 Y95.031 E6.81788
G1 X106.838 Y95.092 E6.83529
G1 X107.653 Y95.279 E6.87423
G1 X108.003 Y95.381 E6.8912
G1 X108.793 Y95.664 E6.93028
G1 X109.133 Y95.81 E6.94751
G1 X109.88 Y96.184 E6.98641
G1 X110.198 Y96.367 E7.00349
G1 X110.898 Y96.829 E7.04255
G1 X111.193 Y97.051 E7.05974
G1 X111.83 Y97.591 E7.09862
G1 X112.097 Y97.846 E7.11582
G1 X112.667 Y98.461 E7.15486
G1 X112.897 Y98.74 E7.1717
G1 X113.39 Y99.416 E7.21066
G1 X113.594 Y99.736 E7.22833
G1 X114 Y100.467 E7.26726
G1 X114.155 Y100.79 E7.28395
G1 X114.475 Y101.568 E7.32312
G1 X114.596 Y101.92 E7.34045
G1 X114.818 Y102.724 E7.37929
G1 X114.895 Y103.088 E7.39661
G1 X115.019 Y103.916 E7.4356
G1 X115.052 Y104.28 E7.45262
G1 X115.077 Y105.116 E7.49156
G1 X115.066 Y105.484 E7.5087
G1 X114.991 Y106.318 E7.5477
G1 X114.935 Y106.684 E7.56494
G1 X114.76 Y107.505 E7.60403
G1 X114.665 Y107.851 E7.62073
G1 X114.397 Y108.642 E7.65962
G1 X114.252 Y108.996 E7.67743
G1 X113.887 Y109.75 E7.71644
G1 X113.712 Y110.064 E7.73318
G1 X113.261 Y110.771 E7.77223
G1 X113.045 Y111.069 E7.78937
G1 X112.515 Y111.715 E7.82828
G1 X112.262 Y111.988 E7.84561
G1 X111.657 Y112.566 E7.88457
G1 X111.377 Y112.803 E7.90165
G1 X110.705 Y113.307 E7.94076
G1 X110.399 Y113.509 E7.95784
G1 X109.676 Y113.927 E7.99672
G1 X109.344 Y114.093 E8.01401
G1 X108.574 Y114.422 E8.053
G1 X108.225 Y114.547 E8.07026
G1 X107.421 Y114.781 E8.10925
G1 X107.066 Y114.862 E8.12621
G1 X106.238 Y115 E8.16529
G1 X105.868 Y115.039 E8.18262
G1 X105.033 Y115.076 E8.22154
G1 X104.669 Y115.071 E8.23849
G1 X103.835 Y115.009 E8.27743
G1 X103.465 Y114.958 E8.29482
G1 X102.641 Y114.795 E8.33393
G1 X102.289 Y114.704 E8.35086
G1 X101.493 Y114.446 E8.38983
G1 X101.147 Y114.31 E8.40714
G1 X100.39 Y113.959 E8.44599
G1 X100.066 Y113.785 E8.46312
G1 X99.351 Y113.343 E8.50226
G1 X99.05 Y113.13 E8.51943
G1 X98.396 Y112.608 E8.55839
G1 X98.124 Y112.364 E8.57541
G1 X97.536 Y111.768 E8.61439
G1 X97.291 Y111.488 E8.63172
G1 X96.779 Y110.825 E8.67072
G1 X96.574 Y110.523 E8.68772
G1 X96.144 Y109.804 E8.72673
G1 X95.973 Y109.475 E8.74399
G1 X95.633 Y108.711 E8.78293
G1 X95.503 Y108.363 E8.80023
G1 X95.258 Y107.565 E8.8391
G1 X95.172 Y107.211 E8.85606
G1 X95.022 Y106.385 E8.89515
G1 X94.947 Y105.701 E8.9272
G1 X94.934 Y105.42 E8.94029
G1 X94.934 Y104.582 E8.97931
G1 X94.956 Y104.215 E8.99643
G1 X95.056 Y103.381 E9.03555
G1 X95.123 Y103.013 E9.05296
G1 X95.322 Y102.203 E9.0918
G1 X95.429 Y101.857 E9.10867
G1 X95.723 Y101.073 E9.14766
G1 X95.872 Y100.737 E9.16477
G1 X96.257 Y99.994 E9.20374
G1 X96.447 Y99.676 E9.22099
G1 X96.92 Y98.982 E9.26009
G1 X97.145 Y98.692 E9.27718
G1 X97.694 Y98.063 E9.31606
G1 X97.953 Y97.799 E9.33328
M204 S3000
M205 X10 Y10
G0 F3000 X98.328 Y98.215
M204 S1800
M205 X8 Y8
G1 F2400 X98.951 Y97.654 E9.37232
G1 X99.186 Y97.467 E9.3863
G1 X99.869 Y96.986 E9.4252
G1 X100.126 Y96.827 E9.43927
G1 X100.864 Y96.43 E9.4783
G1 X101.139 Y96.303 E9.4924
G1 X101.92 Y95.997 E9.53146
G1 X102.203 Y95.905 E9.54531
G1 X103.012 Y95.694 E9.58425
G1 X103.312 Y95.635 E9.59848
G1 X104.144 Y95.523 E9.63757
G1 X104.441 Y95.5 E9.65144
G1 X105.276 Y95.487 E9.69033
G1 X105.576 Y95.501 E9.70431
G1 X106.41 Y95.588 E9.74336
G1 X106.713 Y95.638 E9.75766
G1 X107.528 Y95.825 E9.7966
G1 X107.814 Y95.909 E9.81048
G1 X108.604 Y96.192 E9.84955
G1 X108.882 Y96.311 E9.86363
G1 X109.629 Y96.685 E9.90253
G1 X109.889 Y96.835 E9.91651
G1 X110.589 Y97.297 E9.95556
G1 X110.831 Y97.478 E9.96963
G1 X111.468 Y98.018 E10.00852
G1 X111.686 Y98.227 E10.02258
G1 X112.256 Y98.842 E10.06163
G1 X112.444 Y99.07 E10.07539
G1 X112.937 Y99.746 E10.11435
G1 X113.104 Y100.007 E10.12877
G1 X113.51 Y100.738 E10.16771
G1 X113.638 Y101.003 E10.18141
G1 X113.958 Y101.781 E10.22058
G1 X114.056 Y102.069 E10.23475
G1 X114.278 Y102.873 E10.27359
G1 X114.341 Y103.171 E10.28777
G1 X114.465 Y103.999 E10.32676
G1 X114.492 Y104.297 E10.34069
G1 X114.517 Y105.133 E10.37964
G1 X114.508 Y105.434 E10.39366
G1 X114.433 Y106.268 E10.43265
G1 X114.388 Y106.567 E10.44673
G1 X114.213 Y107.388 E10.48582
G1 X114.135 Y107.672 E10.49953
G1 X113.867 Y108.463 E10.53842
G1 X113.748 Y108.752 E10.55297
G1 X113.383 Y109.506 E10.59198
G1 X113.24 Y109.763 E10.60567
G1 X112.789 Y110.47 E10.64472
G1 X112.612 Y110.713 E10.65872
G1 X112.082 Y111.359 E10.69763
G1 X111.875 Y111.583 E10.71183
G1 X111.27 Y112.161 E10.75079
G1 X111.041 Y112.355 E10.76477
G1 X110.369 Y112.859 E10.80388
G1 X110.118 Y113.025 E10.81789
G1 X109.395 Y113.443 E10.85678
G1 X109.124 Y113.578 E10.87088
G1 X108.354 Y113.907 E10.90987
G1 X108.068 Y114.01 E10.92402
G1 X107.264 Y114.244 E10.96302
G1 X106.974 Y114.31 E10.97686
G1 X106.146 Y114.448 E11.01595
G1 X105.844 Y114.48 E11.03009
G1 X105.009 Y114.517 E11.06901
G1 X104.71 Y114.512 E11.08294
G1 X103.876 Y114.45 E11.12188
G1 X103.574 Y114.409 E11.13607
G1 X102.75 Y114.246 E11.17518
G1 X102.462 Y114.171 E11.18904
G1 X101.666 Y113.913 E11.228
G1 X101.383 Y113.802 E11.24216
G1 X100.626 Y113.451 E11.28101
G1 X100.361 Y113.308 E11.29503
G1 X99.646 Y112.866 E11.33418
G1 X99.399 Y112.693 E11.34822
G1 X98.745 Y112.171 E11.38718
G1 X98.523 Y111.971 E11.40109
G1 X97.935 Y111.375 E11.44008
G1 X97.734 Y111.145 E11.4543
G1 X97.222 Y110.482 E11.49331
G1 X97.054 Y110.235 E11.50722
G1 X96.624 Y109.516 E11.54623
G1 X96.485 Y109.248 E11.56029
G1 X96.145 Y108.484 E11.59923
G1 X96.038 Y108.199 E11.6134
G1 X95.793 Y107.401 E11.65227
G1 X95.723 Y107.111 E11.66616
G1 X95.573 Y106.285 E11.70525
G1 X95.504 Y105.65 E11.735
G1 X95.494 Y105.42 E11.74572
G1 X95.494 Y104.582 E11.78474
G1 X95.512 Y104.282 E11.79873
G1 X95.612 Y103.448 E11.83784
G1 X95.667 Y103.147 E11.85209
G1 X95.866 Y102.337 E11.89093
G1 X95.953 Y102.053 E11.90476
G1 X96.247 Y101.269 E11.94375
G1 X96.37 Y100.995 E11.95773
G1 X96.755 Y100.252 E11.9967
G1 X96.91 Y99.992 E12.0108
G1 X97.383 Y99.298 E12.0499
G1 X97.566 Y99.06 E12.06388
G1 X98.115 Y98.431 E12.10276
G1 X98.328 Y98.215 E12.11688
M204 S3000
M205 X10 Y10
G0 F3000 X98.702 Y98.631
M204 S1800
M205 X8 Y8
G1 F2400 X99.325 Y98.07 E12.15592
G1 X99.508 Y97.925 E12.16679
G1 X100.191 Y97.444 E12.20569
G1 X100.391 Y97.32 E12.21665
G1 X101.129 Y96.923 E12.25567
G1 X101.343 Y96.824 E12.26665
G1 X102.124 Y96.518 E12.30571
G1 X102.344 Y96.446 E12.31649
G1 X103.153 Y96.235 E12.35542
G1 X103.387 Y96.19 E12.36651
G1 X104.219 Y96.078 E12.4056
G1 X104.449 Y96.06 E12.41635
G1 X105.284 Y96.047 E12.45523
G1 X105.518 Y96.058 E12.46614
G1 X106.352 Y96.145 E12.50519
G1 X106.587 Y96.184 E12.51628
G1 X107.402 Y96.371 E12.55521
G1 X107.625 Y96.436 E12.56603
G1 X108.415 Y96.719 E12.6051
G1 X108.631 Y96.811 E12.61604
G1 X109.378 Y97.185 E12.65494
G1 X109.581 Y97.302 E12.66585
G1 X110.281 Y97.764 E12.7049
G1 X110.468 Y97.905 E12.71581
G1 X111.105 Y98.445 E12.75469
G1 X111.276 Y98.608 E12.76569
G1 X111.846 Y99.223 E12.80474
G1 X111.992 Y99.4 E12.81542
G1 X112.485 Y100.076 E12.85438
G1 X112.614 Y100.279 E12.86558
G1 X113.02 Y101.01 E12.90452
G1 X113.12 Y101.216 E12.91518
G1 X113.44 Y101.994 E12.95435
G1 X113.516 Y102.218 E12.96536
G1 X113.738 Y103.022 E13.0042
G1 X113.787 Y103.254 E13.01524
G1 X113.911 Y104.082 E13.05423
G1 X113.932 Y104.313 E13.06503
G1 X113.957 Y105.149 E13.10397
G1 X113.95 Y105.384 E13.11492
G1 X113.875 Y106.218 E13.15391
G1 X113.84 Y106.451 E13.16488
G1 X113.665 Y107.272 E13.20397
G1 X113.604 Y107.492 E13.2146
G1 X113.336 Y108.283 E13.25349
G1 X113.244 Y108.508 E13.26481
G1 X112.879 Y109.262 E13.30382
G1 X112.767 Y109.462 E13.31449
G1 X112.316 Y110.169 E13.35354
G1 X112.179 Y110.358 E13.36441
G1 X111.649 Y111.004 E13.40332
G1 X111.488 Y111.178 E13.41436
G1 X110.883 Y111.756 E13.45332
G1 X110.705 Y111.907 E13.46419
G1 X110.033 Y112.411 E13.5033
G1 X109.838 Y112.54 E13.51419
G1 X109.115 Y112.958 E13.55308
G1 X108.904 Y113.063 E13.56405
G1 X108.134 Y113.392 E13.60304
G1 X107.912 Y113.472 E13.61403
G1 X107.108 Y113.706 E13.65302
G1 X106.882 Y113.757 E13.66381
G1 X106.054 Y113.895 E13.70289
G1 X105.819 Y113.92 E13.7139
G1 X104.984 Y113.957 E13.75282
G1 X104.752 Y113.954 E13.76362
G1 X103.918 Y113.892 E13.80256
G1 X103.683 Y113.86 E13.81361
G1 X102.859 Y113.697 E13.85272
G1 X102.635 Y113.639 E13.86349
G1 X101.839 Y113.381 E13.90246
G1 X101.619 Y113.294 E13.91347
G1 X100.862 Y112.943 E13.95233
G1 X100.655 Y112.832 E13.96326
G1 X99.94 Y112.39 E14.00241
G1 X99.748 Y112.255 E14.01333
G1 X99.094 Y111.733 E14.0523
G1 X98.922 Y111.578 E14.06308
G1 X98.334 Y110.982 E14.10206
G1 X98.178 Y110.803 E14.11312
G1 X97.666 Y110.14 E14.15213
G1 X97.535 Y109.948 E14.16295
G1 X97.105 Y109.229 E14.20196
G1 X96.996 Y109.02 E14.21294
G1 X96.656 Y108.256 E14.25187
G1 X96.573 Y108.034 E14.26291
G1 X96.328 Y107.236 E14.30178
