;FLAVOR:Marlin
;TIME:2423
;Filament used: 2.44981m
;Layer height: 0.2
;MINX:86.55
;MINY:82.778
;MINZ:0.2
;MAXX:123.448
;MAXY:121.174
;MAXZ:30
;Generated with Cura_SteamEngine 4.8.0
M140 S60
M105
M190 S60
M104 S200
M105
M109 S200
M82 ;absolute extrusion mode
G21 ;metric values
G90 ;absolute positioning
M82 ;set extruder to absolute mode
M107 ;start with the fan off
G28 X0 Y0 ;move X/Y to min endstops
G28 Z0 ;move Z to min endstops
G1 Z15.0 F100 ;move the platform down 15mm
G92 E0 ;zero the extruded length
G1 F200 E3 ;extrude 3mm of feed stock
G92 E0 ;zero the extruded length again
G1 F100
G0 Y20 F100
M117 Printing...
G5
G92 E0
G92 E0
G1 F2400 E-6
;LAYER_COUNT:150
;LAYER:0
M106 S255
M204 S3000
M205 X10 Y10
G1 F600 Z0.275
G0 F3000 X90.51 Y88.569 Z0.275
M204 S1800
M205 X8 Y8
;TYPE:SKIRT
G1 F600 Z0.2
G1 F2400 E0
G1 X90.699 Y88.378 E0.01251
G1 X91.414 Y87.7 E0.05839
G1 X91.625 Y87.513 E0.07152
G1 X92.382 Y86.886 E0.11729
G1 X92.597 Y86.72 E0.12994
G1 X93.395 Y86.142 E0.17582
G1 X93.626 Y85.986 E0.1888
G1 X94.459 Y85.463 E0.2346
G1 X94.694 Y85.326 E0.24727
G1 X95.561 Y84.857 E0.29317
G1 X95.814 Y84.731 E0.30633
G1 X96.707 Y84.323 E0.35204
G1 X96.951 Y84.22 E0.36438
G1 X97.871 Y83.868 E0.41024
G1 X98.14 Y83.776 E0.42348
G1 X99.082 Y83.487 E0.46936
G1 X99.344 Y83.416 E0.482
G1 X100.3 Y83.189 E0.52776
G1 X100.568 Y83.134 E0.54049
G1 X101.523 Y82.972 E0.5856
G1 X101.801 Y82.934 E0.59866
G1 X102.797 Y82.833 E0.64528
G1 X103.067 Y82.815 E0.65788
G1 X104.049 Y82.779 E0.70364
G1 X104.327 Y82.778 E0.71658
G1 X105.31 Y82.807 E0.76237
G1 X105.587 Y82.824 E0.7753
G1 X106.568 Y82.918 E0.82119
G1 X106.832 Y82.952 E0.83358
G1 X107.805 Y83.108 E0.87947
G1 X108.09 Y83.164 E0.89299
G1 X109.046 Y83.386 E0.93869
G1 X109.307 Y83.455 E0.95126
G1 X110.25 Y83.739 E0.99712
G1 X110.508 Y83.826 E1.0098
G1 X111.432 Y84.171 E1.05572
G1 X111.689 Y84.277 E1.06867
G1 X112.585 Y84.681 E1.11444
G1 X112.836 Y84.804 E1.12745
G1 X113.704 Y85.267 E1.17326
G1 X113.937 Y85.402 E1.1858
G1 X114.774 Y85.92 E1.23163
G1 X115.006 Y86.074 E1.2446
G1 X115.805 Y86.645 E1.29033
G1 X116.024 Y86.813 E1.30318
G1 X116.787 Y87.438 E1.34911
G1 X116.996 Y87.621 E1.36204
G1 X117.714 Y88.293 E1.40783
G1 X117.904 Y88.482 E1.42031
G1 X118.579 Y89.2 E1.4662
G1 X118.765 Y89.412 E1.47933
G1 X119.389 Y90.172 E1.52512
G1 X119.551 Y90.383 E1.53751
G1 X120.117 Y91.169 E1.58261
G1 X120.274 Y91.403 E1.59573
G1 X120.802 Y92.251 E1.64225
G1 X120.94 Y92.489 E1.65506
G1 X121.405 Y93.358 E1.70095
G1 X121.528 Y93.608 E1.71392
G1 X121.933 Y94.503 E1.75967
G1 X122.036 Y94.752 E1.77221
G1 X122.384 Y95.674 E1.8181
G1 X122.474 Y95.937 E1.83105
G1 X122.755 Y96.863 E1.87611
G1 X122.827 Y97.134 E1.88916
G1 X123.053 Y98.108 E1.93572
G1 X123.105 Y98.367 E1.94802
G1 X123.264 Y99.322 E1.9931
G1 X123.301 Y99.605 E2.00639
G1 X123.398 Y100.601 E2.05299
G1 X123.416 Y100.871 E2.06559
G1 X123.448 Y101.854 E2.11139
G1 X123.448 Y102.132 E2.12433
G1 X123.415 Y103.115 E2.17013
G1 X123.396 Y103.391 E2.18301
G1 X123.298 Y104.372 E2.22892
G1 X123.263 Y104.641 E2.24155
G1 X123.102 Y105.613 E2.28743
G1 X123.046 Y105.892 E2.30068
G1 X122.824 Y106.832 E2.34565
G1 X122.753 Y107.093 E2.35825
G1 X122.461 Y108.05 E2.40484
G1 X122.371 Y108.315 E2.41787
G1 X122.021 Y109.237 E2.46379
G1 X121.919 Y109.48 E2.47606
G1 X121.52 Y110.36 E2.52105
G1 X121.395 Y110.613 E2.53419
G1 X120.922 Y111.494 E2.58076
G1 X120.784 Y111.732 E2.59357
G1 X120.263 Y112.566 E2.63936
G1 X120.107 Y112.799 E2.65241
G1 X119.531 Y113.597 E2.69824
G1 X119.363 Y113.814 E2.71102
G1 X118.736 Y114.573 E2.75686
G1 X118.552 Y114.781 E2.76979
G1 X117.876 Y115.497 E2.81564
G1 X117.688 Y115.685 E2.82802
G1 X116.969 Y116.356 E2.87382
G1 X116.753 Y116.544 E2.88715
G1 X115.988 Y117.166 E2.93306
G1 X115.78 Y117.324 E2.94522
G1 X114.992 Y117.887 E2.99032
G1 X114.753 Y118.046 E3.00369
G1 X113.904 Y118.569 E3.05012
G1 X113.672 Y118.702 E3.06257
G1 X112.816 Y119.157 E3.10771
G1 X112.564 Y119.28 E3.12077
G1 X111.652 Y119.689 E3.16731
G1 X111.401 Y119.792 E3.17994
G1 X110.492 Y120.131 E3.22512
G1 X110.22 Y120.222 E3.23847
G1 X109.261 Y120.507 E3.28506
G1 X109.009 Y120.574 E3.2972
G1 X108.068 Y120.791 E3.34217
G1 X107.787 Y120.845 E3.35549
G1 X106.798 Y121.003 E3.40213
G1 X106.529 Y121.037 E3.41475
G1 X105.564 Y121.128 E3.45988
G1 X105.292 Y121.145 E3.47258
G1 X104.293 Y121.174 E3.51911
G1 X104.009 Y121.173 E3.53234
G1 X103.027 Y121.135 E3.5781
G1 X102.754 Y121.115 E3.59084
G1 X101.774 Y121.013 E3.63672
G1 X101.505 Y120.977 E3.64936
G1 X100.534 Y120.812 E3.69522
G1 X100.255 Y120.754 E3.70849
G1 X99.3 Y120.524 E3.75423
G1 X99.038 Y120.452 E3.76688
G1 X98.097 Y120.16 E3.81276
G1 X97.837 Y120.07 E3.82557
G1 X96.917 Y119.717 E3.87146
G1 X96.664 Y119.611 E3.88423
G1 X95.772 Y119.2 E3.92996
G1 X95.527 Y119.076 E3.94275
G1 X94.661 Y118.606 E3.98863
G1 X94.426 Y118.469 E4.0013
G1 X93.594 Y117.945 E4.04708
G1 X93.361 Y117.788 E4.06016
G1 X92.565 Y117.209 E4.106
G1 X92.349 Y117.04 E4.11877
G1 X91.592 Y116.41 E4.16463
G1 X91.383 Y116.224 E4.17765
G1 X90.671 Y115.546 E4.22343
G1 X90.482 Y115.355 E4.23595
G1 X89.824 Y114.643 E4.28109
G1 X89.641 Y114.43 E4.29417
G1 X89.013 Y113.652 E4.34072
G1 X88.855 Y113.443 E4.35292
G1 X88.295 Y112.653 E4.39801
G1 X88.135 Y112.41 E4.41156
G1 X87.615 Y111.557 E4.45808
G1 X87.484 Y111.327 E4.4704
G1 X87.033 Y110.47 E4.5155
G1 X86.799 Y109.94 E4.54247
G1 X86.641 Y109.383 E4.56943
G1 X86.56 Y108.809 E4.59643
G1 X86.55 Y108.514 E4.61017
G1 X86.55 Y95.437 E5.21909
G1 X86.59 Y94.859 E5.24607
G1 X86.709 Y94.292 E5.27305
G1 X86.905 Y93.747 E5.30001
G1 X87.034 Y93.48 E5.31382
G1 X87.5 Y92.595 E5.3604
G1 X87.637 Y92.354 E5.3733
G1 X88.151 Y91.517 E5.41904
G1 X88.304 Y91.286 E5.43194
G1 X88.874 Y90.482 E5.47783
G1 X89.039 Y90.264 E5.49056
G1 X89.659 Y89.5 E5.53638
G1 X89.841 Y89.29 E5.54932
G1 X90.51 Y88.569 E5.59512
M204 S3000
M205 X10 Y10
G0 F3000 X90.921 Y88.95
M204 S1800
M205 X8 Y8
G1 F2400 X91.084 Y88.785 E5.60592
G1 X91.799 Y88.107 E5.6518
G1 X91.982 Y87.945 E5.66318
G1 X92.739 Y87.318 E5.70895
G1 X92.926 Y87.173 E5.71997
G1 X93.724 Y86.595 E5.76585
G1 X93.923 Y86.46 E5.77705
G1 X94.756 Y85.937 E5.82285
G1 X94.96 Y85.818 E5.83384
G1 X95.827 Y85.349 E5.87974
G1 X96.046 Y85.24 E5.89113
G1 X96.939 Y84.832 E5.93685
G1 X97.151 Y84.743 E5.94756
G1 X98.071 Y84.391 E5.99342
G1 X98.304 Y84.311 E6.0049
G1 X99.246 Y84.022 E6.05078
G1 X99.473 Y83.96 E6.06173
G1 X100.429 Y83.733 E6.10749
G1 X100.661 Y83.686 E6.11851
G1 X101.616 Y83.524 E6.16361
G1 X101.858 Y83.492 E6.17498
G1 X102.854 Y83.391 E6.2216
G1 X103.088 Y83.374 E6.23252
G1 X104.07 Y83.338 E6.27828
G1 X104.31 Y83.338 E6.28945
G1 X105.293 Y83.367 E6.33525
G1 X105.533 Y83.382 E6.34644
G1 X106.514 Y83.476 E6.39233
G1 X106.743 Y83.505 E6.40308
G1 X107.716 Y83.661 E6.44897
G1 X107.963 Y83.709 E6.46068
G1 X108.919 Y83.931 E6.50638
G1 X109.146 Y83.992 E6.51733
G1 X110.089 Y84.276 E6.56319
G1 X110.312 Y84.351 E6.57414
G1 X111.236 Y84.696 E6.62007
G1 X111.459 Y84.788 E6.6313
G1 X112.355 Y85.192 E6.67707
G1 X112.572 Y85.298 E6.68831
G1 X113.44 Y85.761 E6.73412
G1 X113.643 Y85.878 E6.74503
G1 X114.48 Y86.396 E6.79086
G1 X114.68 Y86.53 E6.80207
G1 X115.479 Y87.101 E6.8478
G1 X115.67 Y87.246 E6.85897
G1 X116.433 Y87.871 E6.9049
G1 X116.613 Y88.029 E6.91605
G1 X117.331 Y88.701 E6.96184
G1 X117.496 Y88.866 E6.97271
G1 X118.171 Y89.584 E7.01859
G1 X118.332 Y89.767 E7.02994
G1 X118.956 Y90.527 E7.07573
G1 X119.097 Y90.71 E7.08649
G1 X119.663 Y91.496 E7.13159
G1 X119.799 Y91.699 E7.14297
G1 X120.327 Y92.547 E7.18948
G1 X120.446 Y92.754 E7.2006
G1 X120.911 Y93.623 E7.24649
G1 X121.018 Y93.839 E7.25772
G1 X121.423 Y94.734 E7.30346
G1 X121.512 Y94.95 E7.31434
G1 X121.86 Y95.872 E7.36023
G1 X121.938 Y96.1 E7.37145
G1 X122.219 Y97.026 E7.41651
G1 X122.282 Y97.26 E7.42779
G1 X122.508 Y98.234 E7.47435
G1 X122.553 Y98.459 E7.48504
G1 X122.712 Y99.414 E7.53012
G1 X122.744 Y99.659 E7.54162
G1 X122.841 Y100.655 E7.58822
G1 X122.856 Y100.89 E7.59918
G1 X122.888 Y101.873 E7.64498
G1 X122.888 Y102.113 E7.65616
G1 X122.855 Y103.096 E7.70196
G1 X122.839 Y103.336 E7.71316
G1 X122.741 Y104.317 E7.75906
G1 X122.71 Y104.55 E7.77001
G1 X122.549 Y105.522 E7.81588
G1 X122.501 Y105.764 E7.82737
G1 X122.279 Y106.704 E7.87235
G1 X122.218 Y106.929 E7.8832
G1 X121.926 Y107.886 E7.92979
G1 X121.847 Y108.116 E7.94112
G1 X121.497 Y109.038 E7.98704
G1 X121.409 Y109.249 E7.99768
G1 X121.01 Y110.129 E8.04267
G1 X120.902 Y110.348 E8.05404
G1 X120.429 Y111.229 E8.10061
G1 X120.309 Y111.436 E8.11175
G1 X119.788 Y112.27 E8.15754
G1 X119.652 Y112.471 E8.16884
G1 X119.076 Y113.269 E8.21466
G1 X118.931 Y113.457 E8.22572
G1 X118.304 Y114.216 E8.27156
G1 X118.145 Y114.397 E8.28278
G1 X117.469 Y115.113 E8.32863
G1 X117.306 Y115.275 E8.33933
G1 X116.587 Y115.946 E8.38513
G1 X116.399 Y116.109 E8.39671
G1 X115.634 Y116.731 E8.44262
G1 X115.454 Y116.869 E8.45318
G1 X114.666 Y117.432 E8.49828
G1 X114.459 Y117.569 E8.50984
G1 X113.61 Y118.092 E8.55627
G1 X113.409 Y118.207 E8.56705
G1 X112.553 Y118.662 E8.61219
G1 X112.334 Y118.769 E8.62354
G1 X111.422 Y119.178 E8.67008
G1 X111.205 Y119.268 E8.68102
G1 X110.296 Y119.607 E8.7262
G1 X110.061 Y119.685 E8.73773
G1 X109.102 Y119.97 E8.78431
G1 X108.883 Y120.028 E8.79486
G1 X107.942 Y120.245 E8.83983
G1 X107.698 Y120.292 E8.8514
G1 X106.709 Y120.45 E8.89804
G1 X106.477 Y120.48 E8.90893
G1 X105.512 Y120.571 E8.95406
G1 X105.276 Y120.585 E8.96507
G1 X104.277 Y120.614 E9.01161
G1 X104.03 Y120.613 E9.02311
G1 X103.048 Y120.575 E9.06887
G1 X102.812 Y120.558 E9.07989
G1 X101.832 Y120.456 E9.12577
G1 X101.599 Y120.425 E9.13671
G1 X100.628 Y120.26 E9.18257
G1 X100.386 Y120.21 E9.19408
G1 X99.431 Y119.98 E9.23982
G1 X99.204 Y119.917 E9.25079
G1 X98.263 Y119.625 E9.29667
G1 X98.038 Y119.547 E9.30776
G1 X97.118 Y119.194 E9.35364
G1 X96.899 Y119.102 E9.3647
G1 X96.007 Y118.691 E9.41043
G1 X95.794 Y118.584 E9.42153
G1 X94.928 Y118.114 E9.46741
G1 X94.724 Y117.995 E9.47841
G1 X93.892 Y117.471 E9.5242
G1 X93.691 Y117.335 E9.5355
G1 X92.895 Y116.756 E9.58133
G1 X92.708 Y116.61 E9.59238
G1 X91.951 Y115.98 E9.63824
G1 X91.769 Y115.818 E9.64958
G1 X91.057 Y115.14 E9.69536
G1 X90.894 Y114.974 E9.7062
G1 X90.236 Y114.262 E9.75134
G1 X90.077 Y114.078 E9.76266
G1 X89.449 Y113.3 E9.80922
G1 X89.311 Y113.119 E9.81982
G1 X88.751 Y112.329 E9.86491
G1 X88.613 Y112.119 E9.87661
G1 X88.093 Y111.266 E9.92313
G1 X87.98 Y111.066 E9.93382
G1 X87.529 Y110.209 E9.97892
G1 X87.314 Y109.715 E10.004
G1 X87.174 Y109.194 E10.02912
G1 X87.11 Y108.514 E10.06093
G1 X87.11 Y95.437 E10.66985
G1 X87.15 Y94.899 E10.69497
G1 X87.269 Y94.373 E10.72008
G1 X87.529 Y93.741 E10.7519
G1 X87.995 Y92.856 E10.79847
G1 X88.114 Y92.647 E10.80967
G1 X88.628 Y91.81 E10.85541
G1 X88.761 Y91.61 E10.86659
G1 X89.331 Y90.806 E10.91249
G1 X89.474 Y90.617 E10.92352
G1 X90.094 Y89.853 E10.96934
G1 X90.252 Y89.671 E10.98056
G1 X90.921 Y88.95 E11.02636
M204 S3000
M205 X10 Y10
G0 F3000 X91.331 Y89.331
M204 S1800
M205 X8 Y8
G1 F2400 X91.47 Y89.191 E11.03554
G1 X92.185 Y88.513 E11.08143
G1 X92.339 Y88.376 E11.09102
G1 X93.096 Y87.749 E11.13679
G1 X93.254 Y87.627 E11.14609
G1 X94.052 Y87.049 E11.19197
G1 X94.221 Y86.935 E11.20146
G1 X95.054 Y86.412 E11.24726
G1 X95.227 Y86.311 E11.25659
G1 X96.094 Y85.842 E11.30249
G1 X96.279 Y85.75 E11.31211
G1 X97.172 Y85.342 E11.35783
G1 X97.351 Y85.266 E11.36688
G1 X98.271 Y84.914 E11.41275
G1 X98.469 Y84.846 E11.4225
G1 X99.411 Y84.557 E11.46838
G1 X99.602 Y84.505 E11.4776
G1 X100.558 Y84.278 E11.52335
G1 X100.755 Y84.238 E11.53271
G1 X101.71 Y84.076 E11.57781
G1 X101.914 Y84.049 E11.5874
G1 X102.91 Y83.948 E11.63401
G1 X103.108 Y83.934 E11.64325
G1 X104.09 Y83.898 E11.68901
G1 X104.294 Y83.897 E11.69851
G1 X105.277 Y83.926 E11.7443
G1 X105.48 Y83.939 E11.75377
G1 X106.461 Y84.033 E11.79966
G1 X106.655 Y84.058 E11.80877
G1 X107.628 Y84.214 E11.85466
G1 X107.837 Y84.255 E11.86457
G1 X108.793 Y84.477 E11.91027
G1 X108.984 Y84.528 E11.91948
G1 X109.927 Y84.812 E11.96534
G1 X110.116 Y84.876 E11.97463
G1 X111.04 Y85.221 E12.02056
G1 X111.229 Y85.298 E12.03006
G1 X112.125 Y85.702 E12.07583
G1 X112.309 Y85.792 E12.08536
G1 X113.177 Y86.255 E12.13117
G1 X113.348 Y86.354 E12.14037
G1 X114.185 Y86.872 E12.18621
G1 X114.355 Y86.985 E12.19571
G1 X115.154 Y87.556 E12.24144
G1 X115.315 Y87.679 E12.25087
G1 X116.078 Y88.304 E12.2968
G1 X116.231 Y88.438 E12.30627
G1 X116.949 Y89.11 E12.35206
G1 X117.088 Y89.249 E12.36122
G1 X117.763 Y89.967 E12.4071
G1 X117.899 Y90.123 E12.41674
G1 X118.523 Y90.883 E12.46253
G1 X118.642 Y91.037 E12.47159
G1 X119.208 Y91.823 E12.51669
G1 X119.324 Y91.995 E12.52635
G1 X119.852 Y92.843 E12.57287
G1 X119.953 Y93.018 E12.58228
G1 X120.418 Y93.887 E12.62817
G1 X120.508 Y94.07 E12.63767
G1 X120.913 Y94.965 E12.68341
G1 X120.989 Y95.147 E12.69259
G1 X121.337 Y96.069 E12.73848
G1 X121.402 Y96.263 E12.74801
G1 X121.683 Y97.189 E12.79307
G1 X121.736 Y97.387 E12.80261
G1 X121.962 Y98.361 E12.84917
G1 X122 Y98.551 E12.85819
G1 X122.159 Y99.506 E12.90328
G1 X122.186 Y99.713 E12.913
G1 X122.283 Y100.709 E12.95959
G1 X122.296 Y100.908 E12.96888
G1 X122.328 Y101.891 E13.01468
G1 X122.328 Y102.094 E13.02413
G1 X122.295 Y103.077 E13.06993
G1 X122.282 Y103.28 E13.0794
G1 X122.184 Y104.261 E13.12531
G1 X122.158 Y104.458 E13.13456
G1 X121.997 Y105.43 E13.18044
G1 X121.956 Y105.635 E13.19017
G1 X121.734 Y106.575 E13.23514
G1 X121.682 Y106.766 E13.24436
G1 X121.39 Y107.723 E13.29095
G1 X121.324 Y107.917 E13.30049
G1 X120.974 Y108.839 E13.34642
G1 X120.899 Y109.018 E13.35545
G1 X120.5 Y109.898 E13.40044
G1 X120.409 Y110.083 E13.41004
G1 X119.936 Y110.964 E13.45661
G1 X119.834 Y111.139 E13.46604
G1 X119.313 Y111.973 E13.51183
G1 X119.198 Y112.144 E13.52142
G1 X118.622 Y112.942 E13.56725
G1 X118.5 Y113.101 E13.57658
G1 X117.873 Y113.86 E13.62242
G1 X117.738 Y114.012 E13.63189
G1 X117.062 Y114.728 E13.67774
G1 X116.923 Y114.866 E13.68686
G1 X116.204 Y115.537 E13.73266
G1 X116.046 Y115.675 E13.74242
G1 X115.281 Y116.297 E13.78833
G1 X115.129 Y116.413 E13.79724
G1 X114.341 Y116.976 E13.84233
G1 X114.165 Y117.092 E13.85215
G1 X113.316 Y117.615 E13.89858
G1 X113.147 Y117.713 E13.90768
G1 X112.291 Y118.168 E13.95282
G1 X112.105 Y118.258 E13.96244
G1 X111.193 Y118.667 E14.00898
G1 X111.009 Y118.743 E14.01825
G1 X110.1 Y119.082 E14.06342
G1 X109.901 Y119.148 E14.07319
G1 X108.942 Y119.433 E14.11977
G1 X108.757 Y119.482 E14.12868
G1 X107.816 Y119.699 E14.17365
G1 X107.61 Y119.739 E14.18342
G1 X106.621 Y119.897 E14.23006
G1 X106.424 Y119.922 E14.23931
G1 X105.459 Y120.013 E14.28444
G1 X105.259 Y120.026 E14.29377
G1 X104.26 Y120.055 E14.34031
G1 X104.052 Y120.054 E14.34999
G1 X103.07 Y120.016 E14.39575
G1 X102.87 Y120.001 E14.40509
G1 X101.89 Y119.899 E14.45097
G1 X101.693 Y119.872 E14.46023
G1 X100.722 Y119.707 E14.50609
G1 X100.517 Y119.665 E14.51584
G1 X99.562 Y119.435 E14.56158
G1 X99.37 Y119.383 E14.57084
G1 X98.429 Y119.091 E14.61672
G1 X98.239 Y119.025 E14.62608
G1 X97.319 Y118.672 E14.67197
G1 X97.133 Y118.593 E14.68138
G1 X96.241 Y118.182 E14.72711
G1 X96.061 Y118.092 E14.73648
G1 X95.195 Y117.622 E14.78236
G1 X95.023 Y117.521 E14.79165
G1 X94.191 Y116.997 E14.83743
G1 X94.02 Y116.882 E14.84703
G1 X93.224 Y116.303 E14.89286
G1 X93.066 Y116.179 E14.90222
G1 X92.309 Y115.549 E14.94807
G1 X92.155 Y115.412 E14.95767
G1 X91.443 Y114.734 E15.00345
G1 X91.305 Y114.594 E15.01261
G1 X90.647 Y113.882 E15.05775
G1 X90.512 Y113.727 E15.06732
G1 X89.884 Y112.949 E15.11388
G1 X89.768 Y112.795 E15.12286
G1 X89.208 Y112.005 E15.16795
G1 X89.091 Y111.827 E15.17786
G1 X88.571 Y110.974 E15.22438
G1 X88.475 Y110.805 E15.23343
G1 X88.024 Y109.948 E15.27853
G1 X87.829 Y109.492 E15.30162
G1 X87.71 Y109.011 E15.32469
G1 X87.67 Y108.514 E15.34791
G1 X87.67 Y95.437 E15.95683
G1 X87.71 Y94.943 E15.97991
G1 X87.829 Y94.461 E16.00303
G1 X88.025 Y94.002 E16.02627
G1 X88.491 Y93.117 E16.07284
G1 X88.591 Y92.94 E16.0823
G1 X89.105 Y92.103 E16.12804
G1 X89.217 Y91.934 E16.13748
G1 X89.787 Y91.13 E16.18337
G1 X89.908 Y90.97 E16.19271
G1 X90.528 Y90.206 E16.23853
G1 X90.662 Y90.052 E16.24804
G1 X91.331 Y89.331 E16.29383
M204 S3000
M205 X10 Y10
G0 F3000 X91.742 Y89.712
M204 S1800
M205 X8 Y8
